;FLAVOR:Marlin
;TIME:1934
;Filament used: 0.987474m
;Layer height: 0.1
;MINX:74.202
;MINY:69.202
;MINZ:0.2
;MAXX:125.798
;MAXY:130.798
;MAXZ:12
;Generated with Cura_SteamEngine 4.5.0
M140 S50
M105
M190 S50
M104 S190
M105
M109 S190
M82 ;absolute extrusion mode
G90G28 ;Home
G1 Z15.0 F6000 ;Move the platform down 15mm
;Prime the extruder
G92 E0
G1 F200 E3
G92 E0
G92 E0
G90
G92 E0
G1 F3000 E-3
;LAYER_COUNT:119
;LAYER:0
M107
G0 F2400 X77.149 Y72.598 Z0.2
;TYPE:SKIRT
G1 F3000 E0
G1 F1500 X77.519 Y72.224 E0.0175
G1 X78.102 Y71.692 E0.04375
G1 X78.55 Y71.349 E0.06251
G1 X78.97 Y71.051 E0.07964
G1 X79.637 Y70.627 E0.10593
G1 X80.156 Y70.358 E0.12537
G1 X80.635 Y70.132 E0.14299
G1 X81.365 Y69.831 E0.16925
G1 X81.92 Y69.658 E0.18859
G1 X82.421 Y69.522 E0.20585
G1 X83.192 Y69.354 E0.2321
G1 X83.751 Y69.283 E0.25084
G1 X84.274 Y69.235 E0.26831
G1 X85.063 Y69.202 E0.29457
G1 X85.614 Y69.227 E0.31292
G1 X86.135 Y69.269 E0.3303
G1 X86.918 Y69.372 E0.35657
G1 X87.491 Y69.5 E0.3761
G1 X87.997 Y69.633 E0.3935
G1 X88.558 Y69.803 E0.413
G1 X89.445 Y70.109 E0.44421
G1 X89.724 Y70.166 E0.45368
G1 X90.252 Y70.2 E0.47127
G1 X109.716 Y70.2 E1.11865
G1 X110.289 Y70.164 E1.13774
G1 X110.56 Y70.11 E1.14694
G1 X111.305 Y69.857 E1.1731
G1 X112.252 Y69.57 E1.20602
G1 X113.02 Y69.385 E1.23229
G1 X113.751 Y69.283 E1.25684
G1 X114.274 Y69.235 E1.27431
G1 X115.063 Y69.202 E1.30057
G1 X115.613 Y69.227 E1.31888
G1 X116.135 Y69.269 E1.3363
G1 X116.917 Y69.372 E1.36254
G1 X117.485 Y69.498 E1.38189
G1 X117.989 Y69.63 E1.39922
G1 X118.742 Y69.869 E1.42549
G1 X119.284 Y70.095 E1.44502
G1 X119.756 Y70.313 E1.46232
G1 X120.455 Y70.68 E1.48857
G1 X120.941 Y70.992 E1.50778
G1 X121.372 Y71.292 E1.52525
G1 X121.997 Y71.776 E1.55154
G1 X122.402 Y72.149 E1.56985
G1 X122.775 Y72.518 E1.5873
G1 X123.307 Y73.101 E1.61356
G1 X123.648 Y73.547 E1.63223
G1 X123.947 Y73.968 E1.6494
G1 X124.371 Y74.634 E1.67566
G1 X124.642 Y75.156 E1.69522
G1 X124.868 Y75.635 E1.71284
G1 X125.169 Y76.365 E1.7391
G1 X125.342 Y76.92 E1.75844
G1 X125.478 Y77.421 E1.7757
G1 X125.646 Y78.192 E1.80195
G1 X125.717 Y78.748 E1.82059
G1 X125.765 Y79.269 E1.83799
G1 X125.798 Y80.058 E1.86426
G1 X125.773 Y80.609 E1.88261
G1 X125.731 Y81.132 E1.90006
G1 X125.628 Y81.915 E1.92632
G1 X125.5 Y82.492 E1.94598
G1 X125.368 Y82.994 E1.96325
G1 X125.197 Y83.556 E1.98278
G1 X124.887 Y84.455 E2.01441
G1 X124.8 Y85.267 E2.04157
G1 X124.8 Y114.717 E3.02108
G1 X124.836 Y115.289 E3.04015
G1 X124.889 Y115.559 E3.0493
G1 X125.148 Y116.32 E3.07604
G1 X125.429 Y117.25 E3.10835
G1 X125.615 Y118.018 E3.13463
G1 X125.717 Y118.749 E3.15918
G1 X125.765 Y119.271 E3.17661
G1 X125.798 Y120.06 E3.20288
G1 X125.773 Y120.608 E3.22113
G1 X125.731 Y121.132 E3.23861
G1 X125.628 Y121.915 E3.26488
G1 X125.501 Y122.489 E3.28443
G1 X125.369 Y122.992 E3.30173
G1 X125.13 Y123.745 E3.328
G1 X124.911 Y124.27 E3.34692
G1 X124.694 Y124.742 E3.3642
G1 X124.328 Y125.442 E3.39047
G1 X124.007 Y125.943 E3.41026
G1 X123.706 Y126.375 E3.42778
G1 X123.222 Y126.999 E3.45404
G1 X122.851 Y127.402 E3.47226
G1 X122.482 Y127.775 E3.48971
G1 X121.899 Y128.307 E3.51596
G1 X121.453 Y128.648 E3.53463
G1 X121.032 Y128.947 E3.55181
G1 X120.366 Y129.371 E3.57807
G1 X119.844 Y129.642 E3.59763
G1 X119.365 Y129.868 E3.61525
G1 X118.635 Y130.169 E3.64151
G1 X118.08 Y130.342 E3.66084
G1 X117.579 Y130.478 E3.67811
G1 X116.808 Y130.646 E3.70436
G1 X116.249 Y130.717 E3.7231
G1 X115.726 Y130.765 E3.74057
G1 X114.937 Y130.798 E3.76683
G1 X114.386 Y130.773 E3.78518
G1 X113.865 Y130.731 E3.80256
G1 X113.082 Y130.628 E3.82883
G1 X112.509 Y130.5 E3.84836
G1 X112.003 Y130.367 E3.86576
G1 X111.438 Y130.195 E3.8854
G1 X110.552 Y129.889 E3.91658
G1 X109.733 Y129.8 E3.94398
G1 X90.284 Y129.8 E4.59085
G1 X89.711 Y129.836 E4.60995
G1 X89.441 Y129.889 E4.6191
G1 X88.68 Y130.148 E4.64584
G1 X87.746 Y130.43 E4.67829
G1 X86.978 Y130.616 E4.70457
G1 X86.249 Y130.717 E4.72905
G1 X85.726 Y130.765 E4.74652
G1 X84.937 Y130.798 E4.77278
G1 X84.387 Y130.773 E4.79109
G1 X83.865 Y130.731 E4.80851
G1 X83.083 Y130.628 E4.83475
G1 X82.515 Y130.502 E4.8541
G1 X82.011 Y130.37 E4.87143
G1 X81.258 Y130.131 E4.8977
G1 X80.716 Y129.905 E4.91723
G1 X80.244 Y129.687 E4.93453
G1 X79.545 Y129.32 E4.96078
G1 X79.059 Y129.008 E4.97999
G1 X78.628 Y128.708 E4.99746
G1 X78.003 Y128.224 E5.02375
G1 X77.598 Y127.851 E5.04206
G1 X77.225 Y127.482 E5.05951
G1 X76.693 Y126.899 E5.08576
G1 X76.347 Y126.446 E5.10472
G1 X76.048 Y126.024 E5.12193
G1 X75.624 Y125.358 E5.14818
G1 X75.36 Y124.849 E5.16726
G1 X75.134 Y124.371 E5.18484
G1 X74.833 Y123.641 E5.2111
G1 X74.658 Y123.08 E5.23065
G1 X74.522 Y122.579 E5.24792
G1 X74.354 Y121.808 E5.27416
G1 X74.283 Y121.252 E5.2928
G1 X74.235 Y120.731 E5.31021
G1 X74.202 Y119.942 E5.33647
G1 X74.227 Y119.391 E5.35482
G1 X74.269 Y118.868 E5.37227
G1 X74.372 Y118.085 E5.39854
G1 X74.5 Y117.508 E5.41819
G1 X74.632 Y117.006 E5.43546
G1 X74.802 Y116.448 E5.45486
G1 X75.11 Y115.556 E5.48625
G1 X75.2 Y114.748 E5.51329
G1 X75.2 Y85.289 E6.4931
G1 X75.163 Y84.707 E6.51249
G1 X75.11 Y84.44 E6.52155
G1 X74.857 Y83.695 E6.54771
G1 X74.57 Y82.748 E6.58063
G1 X74.385 Y81.98 E6.6069
G1 X74.283 Y81.252 E6.63135
G1 X74.235 Y80.731 E6.64875
G1 X74.202 Y79.942 E6.67502
G1 X74.227 Y79.392 E6.69333
G1 X74.269 Y78.868 E6.71081
G1 X74.372 Y78.085 E6.73708
G1 X74.499 Y77.511 E6.75663
G1 X74.631 Y77.008 E6.77393
G1 X74.87 Y76.255 E6.80021
G1 X75.092 Y75.723 E6.81938
G1 X75.31 Y75.25 E6.8367
G1 X75.677 Y74.551 E6.86296
G1 X75.992 Y74.059 E6.88239
G1 X76.292 Y73.628 E6.89986
G1 X76.776 Y73.003 E6.92615
G1 X77.149 Y72.598 E6.94446
G0 F2400 X77.433 Y72.88
G1 F1500 X77.803 Y72.506 E6.96196
G1 X78.372 Y71.988 E6.98755
G1 X78.782 Y71.675 E7.00471
G1 X79.202 Y71.377 E7.02184
G1 X79.851 Y70.965 E7.04741
G1 X80.326 Y70.72 E7.06518
G1 X80.805 Y70.494 E7.0828
G1 X81.517 Y70.202 E7.10839
G1 X82.024 Y70.044 E7.12606
G1 X82.525 Y69.908 E7.14332
G1 X83.277 Y69.746 E7.16891
G1 X83.788 Y69.681 E7.18604
G1 X84.311 Y69.633 E7.20351
G1 X85.079 Y69.603 E7.22907
G1 X85.582 Y69.626 E7.24582
G1 X86.103 Y69.668 E7.2632
G1 X86.865 Y69.769 E7.28877
G1 X87.389 Y69.887 E7.30663
G1 X87.895 Y70.02 E7.32404
G1 X88.427 Y70.182 E7.34253
G1 X89.333 Y70.495 E7.37441
G1 X89.669 Y70.563 E7.38582
G1 X90.242 Y70.6 E7.40491
G1 X109.725 Y70.6 E8.05292
G1 X110.339 Y70.562 E8.07338
G1 X110.669 Y70.496 E8.08457
G1 X111.434 Y70.236 E8.11145
G1 X112.366 Y69.954 E8.14383
G1 X113.114 Y69.774 E8.16942
G1 X113.788 Y69.681 E8.19205
G1 X114.311 Y69.633 E8.20952
G1 X115.079 Y69.603 E8.23508
G1 X115.58 Y69.626 E8.25177
G1 X116.102 Y69.668 E8.26918
G1 X116.865 Y69.769 E8.29478
G1 X117.384 Y69.885 E8.31247
G1 X117.888 Y70.017 E8.3298
G1 X118.621 Y70.251 E8.35539
G1 X119.116 Y70.458 E8.37324
G1 X119.588 Y70.676 E8.39053
G1 X120.268 Y71.034 E8.41609
G1 X120.713 Y71.32 E8.43368
G1 X121.144 Y71.62 E8.45115
G1 X121.751 Y72.092 E8.47672
G1 X122.12 Y72.433 E8.49343
G1 X122.493 Y72.802 E8.51088
G1 X123.011 Y73.371 E8.53648
G1 X123.322 Y73.778 E8.55351
G1 X123.621 Y74.199 E8.57069
G1 X124.033 Y74.849 E8.59628
G1 X124.28 Y75.326 E8.61415
G1 X124.506 Y75.805 E8.63177
G1 X124.798 Y76.517 E8.65736
G1 X124.956 Y77.024 E8.67502
G1 X125.092 Y77.525 E8.69229
G1 X125.254 Y78.277 E8.71788
G1 X125.319 Y78.785 E8.73491
G1 X125.367 Y79.306 E8.75231
G1 X125.397 Y80.075 E8.77791
G1 X125.374 Y80.577 E8.79462
G1 X125.332 Y81.1 E8.81207
G1 X125.231 Y81.863 E8.83767
G1 X125.113 Y82.39 E8.85563
G1 X124.981 Y82.892 E8.8729
G1 X124.819 Y83.425 E8.89143
G1 X124.501 Y84.347 E8.92386
G1 X124.438 Y84.66 E8.93448
G1 X124.4 Y85.241 E8.95385
G1 X124.4 Y114.726 E9.93452
G1 X124.438 Y115.339 E9.95495
G1 X124.503 Y115.668 E9.96611
G1 X124.769 Y116.449 E9.99355
G1 X125.046 Y117.363 E10.02531
G1 X125.226 Y118.111 E10.0509
G1 X125.319 Y118.785 E10.07353
G1 X125.367 Y119.307 E10.09097
G1 X125.397 Y120.076 E10.11656
G1 X125.374 Y120.576 E10.13321
G1 X125.332 Y121.1 E10.15069
G1 X125.231 Y121.863 E10.17629
G1 X125.114 Y122.387 E10.19415
G1 X124.982 Y122.89 E10.21145
G1 X124.748 Y123.623 E10.23704
G1 X124.547 Y124.103 E10.25435
G1 X124.33 Y124.575 E10.27163
G1 X123.973 Y125.256 E10.2972
G1 X123.679 Y125.714 E10.3153
G1 X123.378 Y126.146 E10.33281
G1 X122.906 Y126.754 E10.35841
G1 X122.198 Y127.493 E10.39245
G1 X121.629 Y128.011 E10.41805
G1 X121.222 Y128.322 E10.43508
G1 X120.801 Y128.621 E10.45226
G1 X120.151 Y129.033 E10.47785
G1 X119.674 Y129.28 E10.49572
G1 X119.195 Y129.506 E10.51333
G1 X118.483 Y129.798 E10.53893
G1 X117.976 Y129.956 E10.55659
G1 X117.475 Y130.092 E10.57386
G1 X116.723 Y130.254 E10.59944
G1 X116.212 Y130.319 E10.61658
G1 X115.689 Y130.367 E10.63405
G1 X114.921 Y130.397 E10.65961
G1 X114.418 Y130.374 E10.67636
G1 X113.897 Y130.332 E10.69374
G1 X113.135 Y130.231 E10.71931
G1 X112.611 Y130.113 E10.73717
G1 X112.105 Y129.98 E10.75457
G1 X111.569 Y129.817 E10.77321
G1 X110.659 Y129.502 E10.80524
G1 X110.336 Y129.438 E10.81619
G1 X109.759 Y129.4 E10.83542
G1 X90.275 Y129.4 E11.48346
G1 X89.661 Y129.438 E11.50392
G1 X89.332 Y129.503 E11.51508
G1 X88.551 Y129.769 E11.54252
G1 X87.633 Y130.047 E11.57442
G1 X86.885 Y130.226 E11.6
G1 X86.212 Y130.319 E11.6226
G1 X85.689 Y130.367 E11.64006
G1 X84.921 Y130.397 E11.66563
G1 X84.42 Y130.374 E11.68231
G1 X83.898 Y130.332 E11.69973
G1 X83.135 Y130.231 E11.72533
G1 X82.616 Y130.115 E11.74301
G1 X82.112 Y129.983 E11.76034
G1 X81.379 Y129.749 E11.78593
G1 X80.884 Y129.542 E11.80378
G1 X80.412 Y129.324 E11.82107
G1 X79.732 Y128.966 E11.84663
G1 X79.287 Y128.68 E11.86423
G1 X78.856 Y128.38 E11.88169
G1 X78.249 Y127.908 E11.90727
G1 X77.88 Y127.567 E11.92398
G1 X77.507 Y127.198 E11.94143
G1 X76.989 Y126.629 E11.96702
G1 X76.673 Y126.215 E11.98434
G1 X76.374 Y125.793 E12.00154
G1 X75.963 Y125.143 E12.02712
G1 X75.722 Y124.678 E12.04454
G1 X75.496 Y124.2 E12.06213
G1 X75.204 Y123.489 E12.08769
G1 X75.044 Y122.976 E12.10557
G1 X74.908 Y122.475 E12.12283
G1 X74.746 Y121.723 E12.14842
G1 X74.681 Y121.215 E12.16545
G1 X74.633 Y120.694 E12.18285
G1 X74.603 Y119.925 E12.20845
G1 X74.626 Y119.423 E12.22516
G1 X74.668 Y118.9 E12.24262
G1 X74.769 Y118.137 E12.26821
G1 X74.887 Y117.61 E12.28618
G1 X75.019 Y117.108 E12.30344
G1 X75.18 Y116.579 E12.32183
G1 X75.496 Y115.661 E12.35412
G1 X75.562 Y115.335 E12.36519
G1 X75.6 Y114.758 E12.38442
G1 X75.6 Y85.264 E13.36539
G1 X75.562 Y84.663 E13.38542
G1 X75.496 Y84.331 E13.39668
G1 X75.236 Y83.566 E13.42355
G1 X74.954 Y82.634 E13.45594
G1 X74.774 Y81.886 E13.48153
G1 X74.681 Y81.215 E13.50406
G1 X74.633 Y80.694 E13.52146
G1 X74.603 Y79.925 E13.54706
G1 X74.626 Y79.424 E13.56374
G1 X74.668 Y78.9 E13.58122
G1 X74.769 Y78.137 E13.60682
G1 X74.886 Y77.613 E13.62468
G1 X75.018 Y77.11 E13.64198
G1 X75.252 Y76.377 E13.66757
G1 X75.455 Y75.891 E13.68509
G1 X75.673 Y75.418 E13.70241
G1 X76.031 Y74.737 E13.728
G1 X76.32 Y74.287 E13.74579
G1 X76.62 Y73.856 E13.76325
G1 X77.092 Y73.249 E13.78883
G1 X77.433 Y72.88 E13.80554
G0 F2400 X77.408 Y73.495
G1 F1500 X78.088 Y72.787 E13.83819
G1 X78.641 Y72.284 E13.86305
G1 X79.433 Y71.703 E13.89572
G1 X80.066 Y71.303 E13.92063
G1 X80.976 Y70.855 E13.95436
G1 X81.669 Y70.573 E13.97925
G1 X82.63 Y70.294 E14.01253
G1 X83.362 Y70.137 E14.03743
G1 X84.347 Y70.031 E14.07038
G1 X85.095 Y70.003 E14.09527
G1 X86.07 Y70.067 E14.12777
G1 X86.812 Y70.167 E14.15268
G1 X87.793 Y70.407 E14.18627
G1 X88.297 Y70.56 E14.20378
G1 X89.229 Y70.882 E14.23658
G1 X89.616 Y70.96 E14.24971
G1 X90.231 Y71 E14.27021
G1 X109.75 Y71 E14.91941
G1 X110.389 Y70.96 E14.94071
G1 X110.765 Y70.886 E14.95345
G1 X111.563 Y70.614 E14.9815
G1 X112.479 Y70.337 E15.01332
G1 X113.207 Y70.164 E15.03821
G1 X113.824 Y70.079 E15.05893
G1 X114.347 Y70.031 E15.0764
G1 X115.095 Y70.003 E15.10129
G1 X116.07 Y70.067 E15.13379
G1 X116.812 Y70.166 E15.15869
G1 X117.787 Y70.404 E15.19207
G1 X118.499 Y70.632 E15.21693
G1 X119.42 Y71.039 E15.25042
G1 X120.082 Y71.389 E15.27533
G1 X120.915 Y71.949 E15.30872
G1 X121.505 Y72.408 E15.33358
G1 X122.212 Y73.087 E15.36618
G1 X122.715 Y73.64 E15.39104
G1 X123.295 Y74.431 E15.42367
G1 X123.695 Y75.063 E15.44854
G1 X124.145 Y75.976 E15.4824
G1 X124.427 Y76.669 E15.50728
G1 X124.706 Y77.63 E15.54057
G1 X124.863 Y78.362 E15.56547
G1 X124.968 Y79.343 E15.59828
G1 X124.997 Y80.09 E15.62315
G1 X124.934 Y81.068 E15.65574
G1 X124.834 Y81.81 E15.68064
G1 X124.594 Y82.79 E15.7142
G1 X124.441 Y83.295 E15.73175
G1 X124.114 Y84.243 E15.76511
G1 X124.041 Y84.607 E15.77745
G1 X124 Y85.231 E15.79825
G1 X124 Y114.751 E16.78009
G1 X124.04 Y115.389 E16.80135
G1 X124.116 Y115.771 E16.81431
G1 X124.39 Y116.578 E16.84265
G1 X124.662 Y117.477 E16.87389
G1 X124.836 Y118.205 E16.89879
G1 X124.921 Y118.822 E16.9195
G1 X124.969 Y119.344 E16.93694
G1 X124.997 Y120.092 E16.96183
G1 X124.934 Y121.068 E16.99436
G1 X124.834 Y121.81 E17.01927
G1 X124.595 Y122.789 E17.05278
G1 X124.366 Y123.501 E17.07766
G1 X123.967 Y124.408 E17.11062
G1 X123.619 Y125.07 E17.13549
G1 X123.049 Y125.918 E17.16948
G1 X122.59 Y126.508 E17.19434
G1 X121.913 Y127.212 E17.22682
G1 X121.36 Y127.715 E17.25169
G1 X120.569 Y128.295 E17.28431
G1 X119.937 Y128.695 E17.30919
G1 X119.024 Y129.145 E17.34304
G1 X118.331 Y129.427 E17.36793
G1 X117.37 Y129.706 E17.40121
G1 X116.638 Y129.863 E17.42611
G1 X115.653 Y129.969 E17.45906
G1 X114.905 Y129.997 E17.48396
G1 X113.93 Y129.933 E17.51645
G1 X113.188 Y129.833 E17.54136
G1 X112.207 Y129.593 E17.57495
G1 X111.699 Y129.439 E17.5926
G1 X110.763 Y129.116 E17.62554
G1 X110.389 Y129.04 E17.63823
G1 X109.769 Y129 E17.65889
G1 X90.25 Y129 E18.3081
G1 X89.611 Y129.04 E18.32939
G1 X89.229 Y129.116 E18.34235
G1 X88.422 Y129.39 E18.37069
G1 X87.519 Y129.663 E18.40207
G1 X86.791 Y129.836 E18.42696
G1 X86.176 Y129.921 E18.44761
G1 X85.653 Y129.969 E18.46507
G1 X84.905 Y129.997 E18.48997
G1 X83.93 Y129.933 E18.52247
G1 X83.188 Y129.834 E18.54737
G1 X82.213 Y129.596 E18.58075
G1 X81.501 Y129.368 E18.60561
G1 X80.58 Y128.961 E18.6391
G1 X79.918 Y128.611 E18.66401
G1 X79.085 Y128.051 E18.69739
G1 X78.495 Y127.592 E18.72226
G1 X77.788 Y126.913 E18.75486
G1 X77.285 Y126.36 E18.77972
G1 X76.7 Y125.562 E18.81263
G1 X76.301 Y124.929 E18.83752
G1 X75.858 Y124.029 E18.87088
G1 X75.575 Y123.337 E18.89575
G1 X75.294 Y122.37 E18.92924
G1 X75.137 Y121.638 E18.95414
G1 X75.032 Y120.657 E18.98696
G1 X75.003 Y119.91 E19.01182
G1 X75.066 Y118.932 E19.04442
G1 X75.166 Y118.19 E19.06932
G1 X75.406 Y117.21 E19.10288
G1 X75.558 Y116.709 E19.12029
G1 X75.883 Y115.765 E19.1535
G1 X75.96 Y115.388 E19.1663
G1 X76 Y114.769 E19.18693
G1 X76 Y85.255 E20.16857
G1 X75.959 Y84.606 E20.19019
G1 X75.886 Y84.235 E20.20277
G1 X75.614 Y83.437 E20.23081
G1 X75.337 Y82.521 E20.26264
G1 X75.164 Y81.793 E20.28753
G1 X75.08 Y81.178 E20.30817
G1 X75.032 Y80.657 E20.32557
G1 X75.003 Y79.91 E20.35044
G1 X75.066 Y78.932 E20.38303
G1 X75.166 Y78.19 E20.40794
G1 X75.405 Y77.211 E20.44145
G1 X75.634 Y76.499 E20.46633
G1 X76.037 Y75.585 E20.49955
G1 X76.386 Y74.923 E20.52445
G1 X76.949 Y74.085 E20.55802
G1 X77.408 Y73.495 E20.58289
G0 F2400 X77.724 Y73.741
G1 F1500 X78.372 Y73.068 E20.61396
G1 X78.911 Y72.581 E20.63812
G1 X79.665 Y72.029 E20.6692
G1 X80.279 Y71.642 E20.69334
G1 X81.147 Y71.217 E20.72548
G1 X81.82 Y70.944 E20.74964
G1 X82.735 Y70.681 E20.78131
G1 X83.445 Y70.529 E20.80546
G1 X84.384 Y70.43 E20.83686
G1 X85.11 Y70.403 E20.86102
G1 X86.038 Y70.465 E20.89196
G1 X86.758 Y70.563 E20.91613
G1 X87.692 Y70.794 E20.94813
G1 X89.122 Y71.268 E20.99823
G1 X89.563 Y71.357 E21.0132
G1 X90.22 Y71.4 E21.0351
G1 X109.759 Y71.4 E21.68497
G1 X110.44 Y71.358 E21.70766
G1 X110.871 Y71.272 E21.72228
G1 X111.691 Y70.993 E21.75108
G1 X112.593 Y70.721 E21.78242
G1 X113.3 Y70.554 E21.80658
G1 X113.861 Y70.478 E21.82541
G1 X114.384 Y70.43 E21.84288
G1 X115.11 Y70.403 E21.86704
G1 X116.038 Y70.465 E21.89798
G1 X116.758 Y70.563 E21.92215
G1 X117.685 Y70.791 E21.9539
G1 X118.377 Y71.014 E21.97808
G1 X119.252 Y71.402 E22.00991
G1 X119.894 Y71.743 E22.03409
G1 X120.686 Y72.277 E22.06586
G1 X121.259 Y72.724 E22.09003
G1 X121.931 Y73.371 E22.12106
G1 X122.418 Y73.909 E22.1452
G1 X122.969 Y74.662 E22.17623
G1 X123.356 Y75.277 E22.2004
G1 X123.783 Y76.147 E22.23263
G1 X124.056 Y76.82 E22.25679
