;FLAVOR:Marlin
;TIME:6115
;Filament used: 2.37079m
;Layer height: 0.1
;MINX:69.7
;MINY:39.22
;MINZ:0.2
;MAXX:130.3
;MAXY:157.254
;MAXZ:12
;Generated with Cura_SteamEngine 4.5.0
M140 S50
M105
M190 S50
M104 S190
M105
M109 S190
M82 ;absolute extrusion mode
G90G28 ;Home
G1 Z15.0 F6000 ;Move the platform down 15mm
;Prime the extruder
G92 E0
G1 F200 E3
G92 E0
G92 E0
G90
G92 E0
G1 F3000 E-3
;LAYER_COUNT:119
;LAYER:0
M107
G0 F2400 X90.233 Y45.411 Z0.2
;TYPE:SKIRT
G1 F3000 E0
G1 F1200 X90.589 Y44.706 E0.02627
G1 X91.066 Y43.946 E0.05611
G1 X91.528 Y43.305 E0.08239
G1 X92.143 Y42.603 E0.11343
G1 X92.991 Y41.794 E0.15241
G1 X93.976 Y41.037 E0.19373
G1 X94.449 Y40.748 E0.21217
G1 X94.886 Y40.501 E0.22887
G1 X95.942 Y40.004 E0.26768
G1 X97.133 Y39.592 E0.3096
G1 X97.924 Y39.411 E0.33659
G1 X98.704 Y39.285 E0.36287
G1 X99.228 Y39.244 E0.38035
G1 X99.785 Y39.22 E0.39889
G1 X100.575 Y39.226 E0.42517
G1 X101.25 Y39.295 E0.44774
G1 X101.872 Y39.386 E0.46864
G1 X102.647 Y39.54 E0.49492
G1 X103.304 Y39.736 E0.51773
G1 X103.819 Y39.915 E0.53586
G1 X104.551 Y40.212 E0.56214
G1 X105.069 Y40.477 E0.58149
G1 X105.519 Y40.729 E0.59864
G1 X106.188 Y41.15 E0.62493
G1 X106.692 Y41.535 E0.64603
G1 X107.088 Y41.864 E0.66315
G1 X107.67 Y42.399 E0.68944
G1 X108.29 Y43.091 E0.72035
G1 X108.777 Y43.712 E0.7466
G1 X109.3 Y44.529 E0.77886
G1 X109.681 Y45.221 E0.80513
G1 X109.953 Y45.85 E0.82793
G1 X110.308 Y46.78 E0.86104
G1 X121.736 Y80.019 E2.03009
G1 X123.94 Y86.962 E2.27237
G1 X125.864 Y94.156 E2.52005
G1 X127.448 Y101.448 E2.76824
G1 X128.686 Y108.802 E3.01628
G1 X129.575 Y116.212 E3.2645
G1 X130.107 Y123.596 E3.51073
G1 X130.297 Y131.023 E3.75783
G1 X130.3 Y131.926 E3.78787
G1 X130.261 Y132.715 E3.81414
G1 X130.143 Y133.496 E3.84041
G1 X129.946 Y134.26 E3.86665
G1 X129.673 Y135.001 E3.89292
G1 X129.326 Y135.711 E3.9192
G1 X129.151 Y135.994 E3.93027
G1 X129.384 Y136.383 E3.94535
G1 X129.72 Y137.098 E3.97163
G1 X129.981 Y137.843 E3.99788
G1 X130.166 Y138.611 E4.02416
G1 X130.272 Y139.393 E4.05041
G1 X130.3 Y140.05 E4.07228
G1 X130.3 Y149.31 E4.38027
G1 X130.26 Y150.099 E4.40654
G1 X130.141 Y150.879 E4.43279
G1 X129.943 Y151.644 E4.45907
G1 X129.669 Y152.384 E4.48531
G1 X129.321 Y153.093 E4.51158
G1 X128.903 Y153.764 E4.53788
G1 X128.42 Y154.388 E4.56412
G1 X128.015 Y154.825 E4.58394
G1 X127.286 Y155.498 E4.61694
G1 X126.65 Y155.965 E4.64318
G1 X125.97 Y156.366 E4.66944
G1 X125.252 Y156.696 E4.69572
G1 X124.505 Y156.951 E4.72197
G1 X123.736 Y157.13 E4.74823
G1 X122.952 Y157.23 E4.77452
G1 X122.36 Y157.253 E4.79423
G1 X120.12 Y157.254 E4.86873
G1 X119.332 Y157.214 E4.89497
G1 X118.551 Y157.095 E4.92125
G1 X117.787 Y156.898 E4.94749
G1 X117.179 Y156.673 E4.96905
G1 X116.319 Y156.465 E4.99848
G1 X115.577 Y156.194 E5.02475
G1 X114.866 Y155.85 E5.05102
G1 X114.194 Y155.436 E5.07728
G1 X113.567 Y154.956 E5.10354
G1 X113.102 Y154.526 E5.1246
G1 X112.455 Y153.823 E5.15638
G1 X111.988 Y153.187 E5.18262
G1 X111.587 Y152.507 E5.20888
G1 X111.257 Y151.789 E5.23516
G1 X111.002 Y151.042 E5.26142
G1 X110.823 Y150.273 E5.28768
G1 X110.723 Y149.489 E5.31396
G1 X110.7 Y148.894 E5.33377
G1 X110.7 Y140.051 E5.62789
G1 X110.74 Y139.262 E5.65416
G1 X110.772 Y139.05 E5.6613
G1 X89.3 Y139.05 E6.37546
G1 X89.3 Y142.813 E6.50062
G1 X89.432 Y143.977 E6.53958
G1 X89.475 Y144.515 E6.55753
G1 X89.569 Y146.663 E6.62904
G1 X89.574 Y147.175 E6.64607
G1 X89.553 Y148.133 E6.67794
G1 X89.496 Y148.921 E6.70422
G1 X89.359 Y149.698 E6.73046
G1 X89.145 Y150.458 E6.75672
G1 X88.854 Y151.193 E6.78301
G1 X88.491 Y151.894 E6.80927
G1 X88.059 Y152.555 E6.83553
G1 X87.563 Y153.169 E6.86179
G1 X87.174 Y153.573 E6.88044
G1 X86.462 Y154.205 E6.9121
G1 X85.817 Y154.661 E6.93838
G1 X85.13 Y155.05 E6.96464
G1 X84.407 Y155.367 E6.99089
G1 X83.655 Y155.61 E7.01718
G1 X82.883 Y155.775 E7.04343
G1 X82.098 Y155.861 E7.0697
G1 X77.59 Y155.861 E7.21964
G1 X76.801 Y155.818 E7.24592
G1 X76.021 Y155.696 E7.27218
G1 X75.257 Y155.496 E7.29844
G1 X74.518 Y155.219 E7.32469
G1 X73.81 Y154.869 E7.35096
G1 X73.141 Y154.449 E7.37723
G1 X72.518 Y153.964 E7.40349
G1 X72.102 Y153.576 E7.42241
G1 X71.455 Y152.873 E7.45419
G1 X70.988 Y152.237 E7.48043
G1 X70.587 Y151.557 E7.50669
G1 X70.257 Y150.839 E7.53297
G1 X70.002 Y150.092 E7.55923
G1 X69.823 Y149.323 E7.58549
G1 X69.723 Y148.539 E7.61177
G1 X69.7 Y147.944 E7.63158
G1 X69.7 Y131.303 E8.18506
G1 X69.869 Y124.034 E8.42689
G1 X70.385 Y116.621 E8.67405
G1 X71.261 Y109.175 E8.92341
G1 X72.479 Y101.825 E9.17121
G1 X74.046 Y94.529 E9.41941
G1 X75.954 Y87.319 E9.66747
G1 X78.208 Y80.195 E9.91599
G1 X78.989 Y77.913 E9.99621
G1 X89.782 Y46.499 E11.10099
G1 X90.029 Y45.871 E11.12344
G1 X90.233 Y45.411 E11.14017
G0 F2400 X90.598 Y45.573
G1 F1200 X90.946 Y44.887 E11.16576
G1 X91.402 Y44.163 E11.19422
G1 X91.853 Y43.54 E11.2198
G1 X92.44 Y42.87 E11.24942
G1 X93.245 Y42.103 E11.28641
G1 X94.214 Y41.36 E11.32702
G1 X94.646 Y41.096 E11.34386
G1 X95.083 Y40.849 E11.36055
G1 X96.084 Y40.378 E11.39735
G1 X96.524 Y40.21 E11.41301
G1 X97.609 Y39.888 E11.45066
G1 X98.768 Y39.68 E11.48982
G1 X99.802 Y39.62 E11.52427
G1 X100.572 Y39.627 E11.54988
G1 X101.192 Y39.691 E11.57061
G1 X101.814 Y39.782 E11.59152
G1 X102.568 Y39.933 E11.6171
G1 X103.172 Y40.114 E11.63807
G1 X103.687 Y40.293 E11.6562
G1 X104.4 Y40.583 E11.6818
G1 X104.874 Y40.826 E11.69952
G1 X105.324 Y41.078 E11.71667
G1 X105.974 Y41.489 E11.74225
G1 X106.437 Y41.843 E11.76164
G1 X106.833 Y42.172 E11.77876
G1 X107.398 Y42.694 E11.80434
G1 X107.988 Y43.353 E11.83376
G1 X108.462 Y43.959 E11.85935
G1 X108.96 Y44.74 E11.89016
G1 X109.33 Y45.414 E11.91573
G1 X109.579 Y45.993 E11.9367
G1 X109.934 Y46.923 E11.9698
G1 X121.357 Y80.149 E13.13839
G1 X123.559 Y87.083 E13.38037
G1 X125.477 Y94.259 E13.62742
G1 X127.057 Y101.532 E13.87496
G1 X128.292 Y108.868 E14.12239
G1 X129.177 Y116.259 E14.36998
G1 X129.708 Y123.624 E14.61557
G1 X129.897 Y131.033 E14.86208
G1 X129.9 Y131.927 E14.89181
G1 X129.861 Y132.695 E14.91739
G1 X129.743 Y133.455 E14.94297
G1 X129.546 Y134.199 E14.96857
G1 X129.273 Y134.918 E14.99415
G1 X128.927 Y135.605 E15.01973
G1 X128.68 Y135.99 E15.03494
G1 X129.132 Y136.767 E15.06484
G1 X129.437 Y137.473 E15.09042
G1 X129.667 Y138.207 E15.11601
G1 X129.819 Y138.961 E15.14159
G1 X129.9 Y140.05 E15.17791
G1 X129.9 Y149.31 E15.4859
G1 X129.86 Y150.078 E15.51148
G1 X129.741 Y150.838 E15.53706
G1 X129.543 Y151.581 E15.56264
G1 X129.269 Y152.3 E15.58823
G1 X128.922 Y152.986 E15.6138
G1 X128.506 Y153.633 E15.63938
G1 X128.025 Y154.233 E15.66496
G1 X127.59 Y154.686 E15.68585
G1 X127.018 Y155.2 E15.71142
G1 X126.396 Y155.653 E15.73702
G1 X125.731 Y156.039 E15.76259
G1 X125.029 Y156.354 E15.78818
G1 X124.298 Y156.594 E15.81377
G1 X123.547 Y156.757 E15.83933
G1 X122.782 Y156.841 E15.86493
G1 X120.12 Y156.854 E15.95347
G1 X119.352 Y156.814 E15.97905
G1 X118.592 Y156.695 E16.00463
G1 X117.849 Y156.498 E16.0302
G1 X117.287 Y156.284 E16.0502
G1 X116.38 Y156.065 E16.08123
G1 X115.659 Y155.794 E16.10685
G1 X114.971 Y155.451 E16.13242
G1 X114.323 Y155.037 E16.158
G1 X113.72 Y154.559 E16.18359
G1 X113.267 Y154.127 E16.20441
G1 X112.753 Y153.555 E16.22999
G1 X112.3 Y152.933 E16.25558
G1 X111.914 Y152.268 E16.28115
G1 X111.599 Y151.566 E16.30675
G1 X111.359 Y150.835 E16.33234
G1 X111.196 Y150.084 E16.3579
G1 X111.112 Y149.319 E16.38349
G1 X111.1 Y140.051 E16.69175
G1 X111.14 Y139.283 E16.71733
G1 X111.239 Y138.65 E16.73864
G1 X88.9 Y138.65 E17.48163
G1 X88.9 Y142.831 E17.62069
G1 X89.035 Y144.022 E17.66056
G1 X89.075 Y144.532 E17.67758
G1 X89.169 Y146.68 E17.74909
G1 X89.153 Y148.124 E17.79712
G1 X89.096 Y148.891 E17.8227
G1 X88.96 Y149.648 E17.84828
G1 X88.746 Y150.387 E17.87387
G1 X88.457 Y151.1 E17.89946
G1 X88.095 Y151.778 E17.92502
G1 X87.665 Y152.416 E17.95061
G1 X87.17 Y153.005 E17.9762
G1 X86.779 Y153.398 E17.99464
G1 X86.199 Y153.903 E18.02022
G1 X85.569 Y154.345 E18.04581
G1 X84.897 Y154.719 E18.07139
G1 X84.19 Y155.021 E18.09696
G1 X83.455 Y155.248 E18.12255
G1 X82.701 Y155.398 E18.14812
G1 X81.612 Y155.475 E18.18443
G1 X77.591 Y155.461 E18.31817
G1 X76.823 Y155.418 E18.34375
G1 X76.064 Y155.296 E18.36932
G1 X75.321 Y155.096 E18.39491
G1 X74.603 Y154.82 E18.4205
G1 X73.918 Y154.47 E18.44608
G1 X73.273 Y154.052 E18.47165
G1 X72.675 Y153.568 E18.49723
G1 X72.267 Y153.177 E18.51603
G1 X71.753 Y152.605 E18.54161
G1 X71.3 Y151.983 E18.5672
G1 X70.914 Y151.318 E18.59277
G1 X70.599 Y150.616 E18.61836
G1 X70.359 Y149.885 E18.64395
G1 X70.196 Y149.134 E18.66951
G1 X70.112 Y148.369 E18.69511
G1 X70.1 Y131.303 E19.26273
G1 X70.269 Y124.044 E19.50423
G1 X70.784 Y116.649 E19.75078
G1 X71.659 Y109.222 E19.99952
G1 X72.874 Y101.891 E20.24667
G1 X74.437 Y94.613 E20.49426
G1 X76.341 Y87.422 E20.74167
G1 X78.589 Y80.316 E20.98957
G1 X79.368 Y78.042 E21.06951
G1 X90.161 Y46.629 E22.17426
G1 X90.394 Y46.033 E22.19555
G1 X90.598 Y45.573 E22.21228
G0 F2400 X90.964 Y45.735
G1 F1200 X91.484 Y44.773 E22.24866
G1 X91.738 Y44.38 E22.26422
G1 X92.418 Y43.493 E22.30139
G1 X93.498 Y42.412 E22.35222
G1 X94.451 Y41.682 E22.39214
G1 X95.28 Y41.197 E22.42409
G1 X96.227 Y40.751 E22.4589
G1 X96.667 Y40.583 E22.47457
G1 X97.693 Y40.279 E22.51016
G1 X98.831 Y40.075 E22.54861
G1 X99.82 Y40.019 E22.58156
G1 X100.568 Y40.027 E22.60644
G1 X101.134 Y40.087 E22.62537
G1 X101.756 Y40.178 E22.64628
G1 X102.49 Y40.325 E22.67118
G1 X103.041 Y40.492 E22.69033
G1 X103.556 Y40.671 E22.70846
G1 X104.249 Y40.954 E22.73336
G1 X105.128 Y41.427 E22.76656
G1 X105.76 Y41.827 E22.79143
G1 X106.181 Y42.151 E22.8091
G1 X106.577 Y42.48 E22.82623
G1 X107.126 Y42.988 E22.85111
G1 X107.686 Y43.616 E22.87909
G1 X108.146 Y44.205 E22.90395
G1 X108.619 Y44.95 E22.9333
G1 X108.978 Y45.606 E22.95817
G1 X109.206 Y46.136 E22.97736
G1 X109.561 Y47.066 E23.01047
G1 X120.979 Y80.279 E24.17859
G1 X123.177 Y87.204 E24.42024
G1 X125.091 Y94.362 E24.66668
G1 X126.666 Y101.617 E24.91361
G1 X127.897 Y108.934 E25.16039
G1 X128.78 Y116.306 E25.40734
G1 X129.309 Y123.652 E25.6523
G1 X129.497 Y131.043 E25.8982
G1 X129.5 Y131.927 E25.92761
G1 X129.461 Y132.674 E25.95249
G1 X129.343 Y133.413 E25.97738
G1 X129.146 Y134.135 E26.00227
G1 X128.874 Y134.831 E26.02712
G1 X128.528 Y135.495 E26.05203
G1 X128.197 Y135.994 E26.07194
G1 X128.524 Y136.485 E26.09156
G1 X128.87 Y137.148 E26.11644
G1 X129.143 Y137.844 E26.1413
G1 X129.341 Y138.566 E26.1662
G1 X129.46 Y139.304 E26.19107
G1 X129.5 Y140.05 E26.21591
G1 X129.5 Y149.31 E26.5239
G1 X129.46 Y150.057 E26.54878
G1 X129.341 Y150.795 E26.57365
G1 X129.143 Y151.517 E26.59855
G1 X128.87 Y152.213 E26.62341
G1 X128.523 Y152.876 E26.6483
G1 X128.108 Y153.499 E26.6732
G1 X127.45 Y154.26 E26.70666
G1 X126.75 Y154.903 E26.73827
G1 X126.144 Y155.34 E26.76312
G1 X125.494 Y155.711 E26.78802
G1 X124.808 Y156.01 E26.81291
G1 X124.094 Y156.234 E26.83779
G1 X123.361 Y156.381 E26.86266
G1 X122.36 Y156.453 E26.89604
G1 X120.12 Y156.454 E26.97054
G1 X119.373 Y156.414 E26.99542
G1 X118.635 Y156.295 E27.02029
G1 X117.913 Y156.098 E27.04518
G1 X117.397 Y155.896 E27.06361
G1 X116.442 Y155.664 E27.0963
G1 X115.744 Y155.394 E27.12119
G1 X115.08 Y155.051 E27.14604
G1 X114.455 Y154.639 E27.17094
G1 X113.667 Y153.961 E27.20552
G1 X113.05 Y153.287 E27.23591
G1 X112.613 Y152.681 E27.26076
G1 X112.242 Y152.031 E27.28565
G1 X111.943 Y151.345 E27.31054
G1 X111.719 Y150.631 E27.33543
G1 X111.572 Y149.898 E27.3603
G1 X111.5 Y148.894 E27.39377
G1 X111.5 Y140.051 E27.68789
G1 X111.54 Y139.304 E27.71277
G1 X111.659 Y138.566 E27.73764
G1 X111.746 Y138.25 E27.74854
G1 X88.5 Y138.25 E28.5217
G1 X88.5 Y142.859 E28.675
G1 X88.637 Y144.067 E28.71544
G1 X88.769 Y146.698 E28.80305
G1 X88.753 Y148.115 E28.85019
G1 X88.697 Y148.861 E28.87507
G1 X88.561 Y149.597 E28.89996
G1 X88.348 Y150.314 E28.92484
G1 X88.059 Y151.004 E28.94972
G1 X87.699 Y151.66 E28.97461
G1 X87.27 Y152.273 E28.99949
G1 X86.618 Y152.997 E29.0319
G1 X85.936 Y153.6 E29.06218
G1 X85.322 Y154.027 E29.08705
G1 X84.665 Y154.386 E29.11195
G1 X83.975 Y154.673 E29.13681
G1 X83.257 Y154.885 E29.16171
G1 X82.521 Y155.019 E29.18659
G1 X81.614 Y155.075 E29.21682
G1 X77.593 Y155.061 E29.35056
G1 X76.846 Y155.018 E29.37544
G1 X76.108 Y154.896 E29.40032
G1 X75.387 Y154.696 E29.42521
G1 X74.692 Y154.42 E29.45008
G1 X74.03 Y154.072 E29.47495
G1 X73.409 Y153.655 E29.49983
G1 X72.667 Y153.011 E29.53251
G1 X72.05 Y152.337 E29.5629
G1 X71.613 Y151.731 E29.58775
G1 X71.242 Y151.081 E29.61265
G1 X70.943 Y150.395 E29.63753
G1 X70.719 Y149.681 E29.66242
G1 X70.572 Y148.948 E29.68729
G1 X70.5 Y147.944 E29.72077
G1 X70.5 Y131.303 E30.27425
G1 X70.669 Y124.053 E30.51545
G1 X71.183 Y116.677 E30.76137
G1 X72.056 Y109.269 E31.00947
G1 X73.269 Y101.957 E31.25599
G1 X74.828 Y94.698 E31.50293
G1 X76.727 Y87.525 E31.74973
G1 X78.971 Y80.437 E31.99701
G1 X79.746 Y78.172 E32.07663
G1 X90.539 Y46.758 E33.18141
G1 X90.76 Y46.195 E33.20153
G1 X90.964 Y45.735 E33.21826
G0 F2400 X91.33 Y45.897
G1 F1200 X91.82 Y44.99 E33.25255
G1 X92.074 Y44.597 E33.26811
G1 X92.715 Y43.761 E33.30315
G1 X93.752 Y42.721 E33.352
G1 X94.688 Y42.005 E33.3912
G1 X95.476 Y41.545 E33.42154
G1 X96.37 Y41.125 E33.4544
G1 X97.777 Y40.67 E33.50358
G1 X98.894 Y40.471 E33.54132
G1 X99.837 Y40.419 E33.57273
G1 X100.563 Y40.428 E33.59688
G1 X101.076 Y40.483 E33.61404
G1 X101.698 Y40.574 E33.63494
G1 X102.41 Y40.718 E33.65911
G1 X102.91 Y40.87 E33.67649
G1 X103.425 Y41.049 E33.69462
G1 X104.097 Y41.325 E33.71878
G1 X104.933 Y41.776 E33.75038
G1 X105.546 Y42.166 E33.77454
G1 X106.322 Y42.787 E33.8076
G1 X107.083 Y43.532 E33.84302
G1 X107.384 Y43.878 E33.85827
G1 X108.018 Y44.738 E33.89381
G1 X108.627 Y45.798 E33.93447
G1 X108.832 Y46.278 E33.95183
G1 X109.187 Y47.208 E33.98494
G1 X120.601 Y80.409 E35.15264
G1 X122.796 Y87.325 E35.39398
G1 X124.704 Y94.465 E35.63979
G1 X126.275 Y101.701 E35.88606
G1 X127.503 Y109 E36.13224
G1 X128.383 Y116.353 E36.37855
G1 X128.91 Y123.681 E36.62291
G1 X129.097 Y131.052 E36.86815
G1 X129.1 Y131.928 E36.89728
G1 X129.061 Y132.653 E36.92143
G1 X128.943 Y133.37 E36.9456
G1 X128.746 Y134.069 E36.96975
G1 X128.474 Y134.743 E36.99393
G1 X128.13 Y135.382 E37.01807
G1 X127.717 Y135.98 E37.04224
G1 X127.699 Y136 E37.04313
G1 X128.284 Y136.872 E37.07806
G1 X128.598 Y137.526 E37.10219
G1 X128.839 Y138.212 E37.12637
G1 X129.002 Y138.919 E37.1505
G1 X129.087 Y139.641 E37.17468
G1 X129.1 Y149.31 E37.49627
G1 X129.06 Y150.035 E37.52042
G1 X128.941 Y150.752 E37.5446
G1 X128.743 Y151.451 E37.56876
G1 X128.47 Y152.124 E37.59292
G1 X128.125 Y152.763 E37.61707
G1 X127.711 Y153.36 E37.64123
G1 X127.167 Y153.977 E37.66859
G1 X126.483 Y154.604 E37.69945
G1 X125.892 Y155.027 E37.72363
G1 X125.258 Y155.381 E37.74778
G1 X124.589 Y155.664 E37.77194
G1 X123.893 Y155.872 E37.7961
G1 X123.178 Y156.002 E37.82027
G1 X122.36 Y156.053 E37.84753
G1 X120.12 Y156.054 E37.92203
G1 X119.395 Y156.014 E37.94618
G1 X118.678 Y155.895 E37.97036
G1 X117.979 Y155.698 E37.99451
G1 X117.508 Y155.507 E38.01142
G1 X116.506 Y155.264 E38.04571
G1 X115.832 Y154.995 E38.06985
G1 X115.191 Y154.652 E38.09403
G1 X114.592 Y154.242 E38.11817
G1 X113.95 Y153.678 E38.14659
G1 X113.349 Y153.02 E38.17623
G1 X112.926 Y152.429 E38.2004
G1 X112.572 Y151.795 E38.22456
G1 X112.289 Y151.126 E38.24872
G1 X112.081 Y150.43 E38.27288
G1 X111.951 Y149.715 E38.29705
G1 X111.9 Y148.894 E38.32441
G1 X111.9 Y140.051 E38.61853
G1 X111.94 Y139.326 E38.64268
G1 X112.059 Y138.609 E38.66685
G1 X112.257 Y137.91 E38.69101
G1 X112.281 Y137.85 E38.69316
G1 X88.1 Y137.85 E39.49743
G1 X88.1 Y142.877 E39.66462
G1 X88.24 Y144.112 E39.70596
G1 X88.37 Y146.715 E39.79265
G1 X88.353 Y148.107 E39.83895
G1 X88.298 Y148.831 E39.8631
G1 X88.162 Y149.545 E39.88727
G1 X87.95 Y150.239 E39.91141
G1 X87.662 Y150.906 E39.93557
G1 X87.303 Y151.537 E39.95972
G1 X86.876 Y152.125 E39.98389
G1 X86.34 Y152.709 E40.01025
G1 X85.674 Y153.297 E40.0398
G1 X85.075 Y153.709 E40.06398
G1 X84.435 Y154.053 E40.08815
G1 X83.761 Y154.324 E40.11231
G1 X83.062 Y154.52 E40.13646
G1 X82.345 Y154.637 E40.16062
G1 X81.615 Y154.675 E40.18493
G1 X77.594 Y154.661 E40.31867
G1 X76.869 Y154.618 E40.34283
G1 X76.153 Y154.497 E40.36698
G1 X75.455 Y154.297 E40.39113
G1 X74.782 Y154.021 E40.41532
