;FLAVOR:Marlin
;TIME:8188
;Filament used: 3.55225m
;Layer height: 0.1
;MINX:64.323
;MINY:69.7
;MINZ:0.2
;MAXX:137.675
;MAXY:130.3
;MAXZ:23
;Generated with Cura_SteamEngine 4.5.0
M140 S50
M105
M190 S50
M104 S190
M105
M109 S190
M82 ;absolute extrusion mode
G90G28 ;Home
G1 Z15.0 F6000 ;Move the platform down 15mm
;Prime the extruder
G92 E0
G1 F200 E3
G92 E0
G92 E0
G90
G92 E0
G1 F3000 E-3
;LAYER_COUNT:229
;LAYER:0
M107
G0 F2400 X67.905 Y72.102 Z0.2
;TYPE:SKIRT
G1 F3000 E0
G1 F1200 X68.608 Y71.455 E0.03178
G1 X69.244 Y70.988 E0.05802
G1 X69.924 Y70.587 E0.08428
G1 X70.642 Y70.257 E0.11056
G1 X71.389 Y70.002 E0.13681
G1 X72.158 Y69.823 E0.16307
G1 X72.942 Y69.723 E0.18936
G1 X73.537 Y69.7 E0.20917
G1 X83.069 Y69.7 E0.5262
G1 X83.858 Y69.74 E0.55248
G1 X84.638 Y69.859 E0.57872
G1 X85.403 Y70.057 E0.605
G1 X86.143 Y70.331 E0.63125
G1 X86.852 Y70.679 E0.65752
G1 X87.124 Y70.848 E0.66817
G1 X87.567 Y70.587 E0.68527
G1 X88.285 Y70.257 E0.71155
G1 X89.032 Y70.002 E0.7378
G1 X89.801 Y69.823 E0.76407
G1 X90.585 Y69.723 E0.79035
G1 X91.18 Y69.7 E0.81016
G1 X129.758 Y69.7 E2.09327
G1 X130.547 Y69.74 E2.11954
G1 X131.327 Y69.859 E2.14579
G1 X132.092 Y70.057 E2.17207
G1 X132.832 Y70.331 E2.19831
G1 X133.541 Y70.679 E2.22458
G1 X134.212 Y71.097 E2.25088
G1 X134.836 Y71.58 E2.27712
G1 X135.273 Y71.985 E2.29694
G1 X135.92 Y72.688 E2.32872
G1 X136.387 Y73.324 E2.35496
G1 X136.788 Y74.004 E2.38122
G1 X137.118 Y74.722 E2.4075
G1 X137.373 Y75.469 E2.43375
G1 X137.552 Y76.238 E2.46001
G1 X137.652 Y77.022 E2.4863
G1 X137.675 Y77.617 E2.5061
G1 X137.675 Y87.633 E2.83924
G1 X137.635 Y88.422 E2.86551
G1 X137.516 Y89.202 E2.89176
G1 X137.318 Y89.967 E2.91804
G1 X137.044 Y90.707 E2.94428
G1 X136.696 Y91.416 E2.97055
G1 X136.278 Y92.087 E2.99685
G1 X135.795 Y92.711 E3.02309
G1 X135.39 Y93.148 E3.04291
G1 X134.687 Y93.795 E3.07469
G1 X134.051 Y94.262 E3.10093
G1 X133.371 Y94.663 E3.12719
G1 X132.653 Y94.993 E3.15347
G1 X131.906 Y95.248 E3.17972
G1 X131.137 Y95.427 E3.20598
G1 X130.353 Y95.527 E3.23227
G1 X129.758 Y95.55 E3.25207
G1 X124.492 Y95.55 E3.42722
G1 X123.703 Y95.51 E3.4535
G1 X122.923 Y95.391 E3.47974
G1 X122.788 Y95.356 E3.48438
G1 X122.405 Y95.786 E3.50353
G1 X121.823 Y96.32 E3.5298
G1 X121.191 Y96.792 E3.55604
G1 X120.513 Y97.198 E3.58232
G1 X119.798 Y97.534 E3.6086
G1 X119.053 Y97.795 E3.63485
G1 X118.285 Y97.979 E3.66112
G1 X117.31 Y98.099 E3.69379
G1 X109.456 Y98.565 E3.95548
G1 X108.666 Y98.572 E3.98176
G1 X107.88 Y98.499 E4.00801
G1 X107.579 Y98.44 E4.01821
G1 X103.594 Y123.623 E4.86622
G1 X103.431 Y124.396 E4.8925
G1 X103.191 Y125.148 E4.91875
G1 X102.876 Y125.872 E4.94501
G1 X102.49 Y126.561 E4.97128
G1 X102.036 Y127.207 E4.99754
G1 X101.519 Y127.804 E5.02381
G1 X100.966 Y128.326 E5.0491
G1 X100.229 Y128.905 E5.08028
G1 X99.559 Y129.322 E5.10652
G1 X98.85 Y129.67 E5.13279
G1 X98.109 Y129.944 E5.15907
G1 X97.344 Y130.141 E5.18534
G1 X96.564 Y130.26 E5.21159
G1 X95.778 Y130.3 E5.23776
G1 X85.582 Y130.3 E5.57688
G1 X84.793 Y130.26 E5.60316
G1 X84.013 Y130.141 E5.6294
G1 X83.248 Y129.943 E5.65568
G1 X82.508 Y129.669 E5.68193
G1 X81.799 Y129.321 E5.7082
G1 X81.128 Y128.903 E5.73449
G1 X80.776 Y128.63 E5.74931
G1 X79.93 Y129.218 E5.78358
G1 X79.23 Y129.584 E5.80985
G1 X78.497 Y129.878 E5.83612
G1 X77.738 Y130.096 E5.86238
G1 X76.961 Y130.236 E5.88864
G1 X75.966 Y130.3 E5.9218
G1 X72.255 Y130.3 E6.04523
G1 X71.466 Y130.26 E6.07151
G1 X70.686 Y130.141 E6.09775
G1 X69.921 Y129.943 E6.12403
G1 X69.181 Y129.669 E6.15028
G1 X68.472 Y129.321 E6.17655
G1 X67.801 Y128.903 E6.20284
G1 X67.177 Y128.42 E6.22909
G1 X66.74 Y128.015 E6.2489
G1 X66.079 Y127.298 E6.28134
G1 X65.612 Y126.662 E6.30758
G1 X65.211 Y125.982 E6.33384
G1 X64.881 Y125.264 E6.36012
G1 X64.626 Y124.517 E6.38637
G1 X64.447 Y123.748 E6.41263
G1 X64.347 Y122.964 E6.43892
G1 X64.324 Y122.371 E6.45866
G1 X64.323 Y117.819 E6.61006
G1 X64.363 Y117.03 E6.63634
G1 X64.482 Y116.249 E6.66261
G1 X64.68 Y115.485 E6.68886
G1 X64.954 Y114.744 E6.71514
G1 X65.301 Y114.035 E6.74139
G1 X65.719 Y113.365 E6.76766
G1 X66.202 Y112.74 E6.79393
G1 X66.608 Y112.302 E6.81379
G1 X67.311 Y111.655 E6.84557
G1 X67.947 Y111.188 E6.87181
G1 X68.627 Y110.787 E6.89807
G1 X69.345 Y110.457 E6.92435
G1 X70.092 Y110.202 E6.95061
G1 X70.861 Y110.023 E6.97687
G1 X71.645 Y109.923 E7.00315
G1 X72.24 Y109.9 E7.02296
G1 X77.523 Y109.9 E7.19867
G1 X78.312 Y109.94 E7.22495
G1 X79.092 Y110.059 E7.25119
G1 X79.857 Y110.257 E7.27747
G1 X80.597 Y110.531 E7.30372
G1 X81.306 Y110.879 E7.32999
G1 X81.977 Y111.297 E7.35628
G1 X82.209 Y111.477 E7.36605
G1 X82.687 Y111.257 E7.38355
G1 X83.434 Y111.002 E7.4098
G1 X84.075 Y110.853 E7.43169
G1 X84.075 Y90.096 E8.12207
G1 X83.45 Y90.159 E8.14296
G1 X82.591 Y90.168 E8.17154
G1 X74.315 Y90.168 E8.4468
G1 X73.526 Y90.128 E8.47307
G1 X72.746 Y90.009 E8.49932
G1 X71.981 Y89.811 E8.5256
G1 X71.241 Y89.537 E8.55184
G1 X70.532 Y89.189 E8.57811
G1 X69.861 Y88.771 E8.60441
G1 X69.237 Y88.288 E8.63065
G1 X68.8 Y87.883 E8.65047
G1 X68.315 Y87.398 E8.67328
G1 X67.785 Y86.812 E8.69956
G1 X67.318 Y86.176 E8.72581
G1 X66.917 Y85.496 E8.75206
G1 X66.587 Y84.778 E8.77834
G1 X66.332 Y84.031 E8.8046
G1 X66.153 Y83.262 E8.83086
G1 X66.053 Y82.478 E8.85715
G1 X65.744 Y81.288 E8.89804
G1 X65.644 Y80.504 E8.92432
G1 X65.621 Y79.912 E8.94403
G1 X65.62 Y77.62 E9.02026
G1 X65.66 Y76.832 E9.0465
G1 X65.779 Y76.051 E9.07278
G1 X65.976 Y75.286 E9.09905
G1 X66.25 Y74.546 E9.1253
G1 X66.597 Y73.837 E9.15155
G1 X67.015 Y73.166 E9.17785
G1 X67.497 Y72.541 E9.2041
G1 X67.905 Y72.102 E9.22403
G0 F2400 X68.304 Y72.267
G1 F1200 X68.876 Y71.753 E9.24961
G1 X69.498 Y71.3 E9.2752
G1 X70.163 Y70.914 E9.30078
G1 X70.865 Y70.599 E9.32637
G1 X71.596 Y70.359 E9.35196
G1 X72.347 Y70.196 E9.37752
G1 X73.112 Y70.112 E9.40312
G1 X83.069 Y70.1 E9.73429
G1 X83.837 Y70.14 E9.75987
G1 X84.597 Y70.259 E9.78545
G1 X85.34 Y70.457 E9.81103
G1 X86.059 Y70.731 E9.83662
G1 X86.745 Y71.078 E9.86219
G1 X87.117 Y71.317 E9.87689
G1 X87.806 Y70.914 E9.90344
G1 X88.508 Y70.599 E9.92903
G1 X89.239 Y70.359 E9.95462
G1 X89.99 Y70.196 E9.98018
G1 X90.755 Y70.112 E10.00578
G1 X129.758 Y70.1 E11.30302
G1 X130.526 Y70.14 E11.3286
G1 X131.286 Y70.259 E11.35419
G1 X132.029 Y70.457 E11.37976
G1 X132.748 Y70.731 E11.40536
G1 X133.434 Y71.078 E11.43092
G1 X134.081 Y71.494 E11.45651
G1 X134.681 Y71.975 E11.48209
G1 X135.108 Y72.384 E11.50175
G1 X135.622 Y72.956 E11.52733
G1 X136.075 Y73.578 E11.55292
G1 X136.461 Y74.243 E11.5785
G1 X136.776 Y74.945 E11.60409
G1 X137.016 Y75.676 E11.62968
G1 X137.179 Y76.427 E11.65524
G1 X137.263 Y77.192 E11.68083
G1 X137.275 Y87.633 E12.0281
G1 X137.235 Y88.401 E12.05368
G1 X137.116 Y89.161 E12.07927
G1 X136.918 Y89.904 E12.10484
G1 X136.644 Y90.623 E12.13043
G1 X136.297 Y91.309 E12.156
G1 X135.881 Y91.956 E12.18159
G1 X135.4 Y92.556 E12.20716
G1 X134.991 Y92.983 E12.22683
G1 X134.419 Y93.497 E12.25241
G1 X133.797 Y93.95 E12.278
G1 X133.132 Y94.336 E12.30357
G1 X132.43 Y94.651 E12.32917
G1 X131.699 Y94.891 E12.35476
G1 X130.948 Y95.054 E12.38032
G1 X130.183 Y95.138 E12.40591
G1 X124.492 Y95.15 E12.5952
G1 X123.724 Y95.11 E12.62077
G1 X122.964 Y94.991 E12.64636
G1 X122.64 Y94.905 E12.65751
G1 X121.964 Y95.66 E12.69122
G1 X121.381 Y96.162 E12.7168
G1 X120.749 Y96.601 E12.7424
G1 X120.076 Y96.972 E12.76796
G1 X119.367 Y97.271 E12.79355
G1 X118.631 Y97.495 E12.81914
G1 X117.876 Y97.641 E12.84472
G1 X117.286 Y97.7 E12.86444
G1 X109.432 Y98.166 E13.12612
G1 X108.663 Y98.172 E13.1517
G1 X107.898 Y98.097 E13.17727
G1 X107.249 Y97.965 E13.19929
G1 X103.199 Y123.561 E14.06121
G1 X103.04 Y124.313 E14.08678
G1 X102.803 Y125.045 E14.11237
G1 X102.491 Y125.748 E14.13795
G1 X102.109 Y126.415 E14.16351
G1 X101.659 Y127.039 E14.1891
G1 X101.146 Y127.613 E14.21471
G1 X100.706 Y128.022 E14.23469
G1 X99.985 Y128.588 E14.26517
G1 X99.33 Y128.992 E14.29077
G1 X98.637 Y129.325 E14.31634
G1 X97.913 Y129.585 E14.34193
G1 X97.166 Y129.769 E14.36752
G1 X96.404 Y129.873 E14.39309
G1 X95.778 Y129.9 E14.41393
G1 X85.582 Y129.9 E14.75305
G1 X84.814 Y129.86 E14.77863
G1 X84.054 Y129.741 E14.80422
G1 X83.311 Y129.543 E14.82979
G1 X82.592 Y129.269 E14.85539
G1 X81.906 Y128.922 E14.88095
G1 X81.259 Y128.506 E14.90654
G1 X80.775 Y128.118 E14.92717
G1 X80.073 Y128.655 E14.95657
G1 X79.412 Y129.049 E14.98216
G1 X78.714 Y129.371 E15.00773
G1 X77.986 Y129.619 E15.03331
G1 X77.236 Y129.79 E15.05889
G1 X76.472 Y129.883 E15.08449
G1 X75.966 Y129.9 E15.10133
G1 X72.255 Y129.9 E15.22476
G1 X71.487 Y129.86 E15.25034
G1 X70.727 Y129.741 E15.27592
G1 X69.984 Y129.543 E15.3015
G1 X69.265 Y129.269 E15.32709
G1 X68.579 Y128.922 E15.35266
G1 X67.932 Y128.506 E15.37824
G1 X67.332 Y128.025 E15.40382
G1 X66.891 Y127.602 E15.42414
G1 X66.377 Y127.03 E15.44972
G1 X65.924 Y126.408 E15.47531
G1 X65.538 Y125.743 E15.50089
G1 X65.223 Y125.041 E15.52648
G1 X64.983 Y124.31 E15.55207
G1 X64.82 Y123.559 E15.57763
G1 X64.736 Y122.794 E15.60323
G1 X64.723 Y117.819 E15.7687
G1 X64.763 Y117.051 E15.79427
G1 X64.882 Y116.291 E15.81986
G1 X65.08 Y115.547 E15.84547
G1 X65.353 Y114.828 E15.87105
G1 X65.7 Y114.142 E15.89662
G1 X66.116 Y113.495 E15.9222
G1 X66.597 Y112.895 E15.94778
G1 X67.007 Y112.467 E15.96749
G1 X67.579 Y111.953 E15.99307
G1 X68.201 Y111.5 E16.01866
G1 X68.866 Y111.114 E16.04423
G1 X69.568 Y110.799 E16.06983
G1 X70.299 Y110.559 E16.09542
G1 X71.05 Y110.396 E16.12098
G1 X71.815 Y110.312 E16.14657
G1 X77.523 Y110.3 E16.33642
G1 X78.291 Y110.34 E16.362
G1 X79.051 Y110.459 E16.38759
G1 X79.794 Y110.657 E16.41316
G1 X80.513 Y110.931 E16.43875
G1 X81.199 Y111.278 E16.46432
G1 X81.846 Y111.694 E16.48991
G1 X82.157 Y111.943 E16.50316
G1 X82.91 Y111.599 E16.53069
G1 X83.641 Y111.359 E16.55628
G1 X84.392 Y111.196 E16.58184
G1 X84.475 Y111.187 E16.58462
G1 X84.475 Y89.625 E17.30177
G1 X83.898 Y89.722 E17.32123
G1 X83.045 Y89.769 E17.34965
G1 X74.315 Y89.768 E17.64001
G1 X73.547 Y89.728 E17.66559
G1 X72.787 Y89.609 E17.69117
G1 X72.044 Y89.411 E17.71675
G1 X71.325 Y89.137 E17.74234
G1 X70.639 Y88.79 E17.76791
G1 X69.992 Y88.374 E17.79349
G1 X69.392 Y87.893 E17.81907
G1 X68.597 Y87.116 E17.85604
G1 X68.083 Y86.544 E17.88162
G1 X67.63 Y85.922 E17.90721
G1 X67.244 Y85.257 E17.93279
G1 X66.929 Y84.555 E17.95838
G1 X66.689 Y83.824 E17.98397
G1 X66.526 Y83.073 E18.00953
G1 X66.448 Y82.361 E18.03335
G1 X66.28 Y81.85 E18.05124
G1 X66.117 Y81.099 E18.0768
G1 X66.033 Y80.334 E18.1024
G1 X66.02 Y77.62 E18.19267
G1 X66.06 Y76.852 E18.21825
G1 X66.179 Y76.092 E18.24383
G1 X66.376 Y75.349 E18.2694
G1 X66.65 Y74.63 E18.29499
G1 X66.996 Y73.943 E18.32057
G1 X67.412 Y73.296 E18.34616
G1 X67.893 Y72.696 E18.37173
G1 X68.304 Y72.267 E18.39149
G0 F2400 X68.47 Y72.667
G1 F1200 X69.144 Y72.05 E18.42189
G1 X69.75 Y71.613 E18.44674
G1 X70.4 Y71.242 E18.47163
G1 X71.086 Y70.943 E18.49652
G1 X71.8 Y70.719 E18.52141
G1 X72.533 Y70.572 E18.54627
G1 X73.537 Y70.5 E18.57975
G1 X83.069 Y70.5 E18.89679
G1 X83.816 Y70.54 E18.92167
G1 X84.554 Y70.659 E18.94653
G1 X85.276 Y70.857 E18.97143
G1 X85.972 Y71.13 E18.9963
G1 X86.635 Y71.477 E19.02119
G1 X87.127 Y71.805 E19.04085
G1 X88.043 Y71.242 E19.07661
G1 X88.729 Y70.943 E19.1015
G1 X89.443 Y70.719 E19.12639
G1 X90.176 Y70.572 E19.15126
G1 X91.18 Y70.5 E19.18474
G1 X129.758 Y70.5 E20.46785
G1 X130.505 Y70.54 E20.49273
G1 X131.243 Y70.659 E20.51759
G1 X131.965 Y70.857 E20.54249
G1 X132.661 Y71.13 E20.56736
G1 X133.324 Y71.477 E20.59225
G1 X133.947 Y71.892 E20.61714
G1 X134.708 Y72.55 E20.6506
G1 X135.325 Y73.224 E20.681
G1 X135.762 Y73.83 E20.70585
G1 X136.133 Y74.48 E20.73074
G1 X136.432 Y75.166 E20.75563
G1 X136.656 Y75.88 E20.78052
G1 X136.803 Y76.613 E20.80538
G1 X136.875 Y77.617 E20.83886
G1 X136.875 Y87.633 E21.17199
G1 X136.835 Y88.38 E21.19687
G1 X136.716 Y89.118 E21.22174
G1 X136.518 Y89.84 E21.24664
G1 X136.245 Y90.536 E21.2715
G1 X135.898 Y91.199 E21.29639
G1 X135.483 Y91.822 E21.32129
G1 X134.825 Y92.583 E21.35475
G1 X134.151 Y93.2 E21.38514
G1 X133.545 Y93.637 E21.40999
G1 X132.895 Y94.008 E21.43489
G1 X132.209 Y94.307 E21.45978
G1 X131.495 Y94.531 E21.48466
G1 X130.762 Y94.678 E21.50953
G1 X129.758 Y94.75 E21.54301
G1 X124.492 Y94.75 E21.71816
G1 X123.745 Y94.71 E21.74304
G1 X123.007 Y94.591 E21.7679
G1 X122.492 Y94.45 E21.78566
G1 X122.051 Y94.996 E21.809
G1 X121.522 Y95.524 E21.83386
G1 X120.939 Y95.993 E21.85875
G1 X120.309 Y96.397 E21.88364
G1 X119.64 Y96.732 E21.90853
G1 X118.939 Y96.993 E21.9334
G1 X118.215 Y97.178 E21.95826
G1 X117.263 Y97.301 E21.99019
G1 X109.409 Y97.767 E22.25187
G1 X108.661 Y97.771 E22.27675
G1 X107.916 Y97.696 E22.30165
G1 X107.184 Y97.541 E22.32654
G1 X106.925 Y97.456 E22.33561
G1 X102.804 Y123.498 E23.21254
G1 X102.648 Y124.23 E23.23744
G1 X102.414 Y124.94 E23.2623
G1 X102.106 Y125.622 E23.28719
G1 X101.728 Y126.267 E23.31206
G1 X101.282 Y126.868 E23.33695
G1 X100.775 Y127.418 E23.36183
G1 X100.334 Y127.815 E23.38156
G1 X99.74 Y128.271 E23.40647
G1 X99.102 Y128.66 E23.43132
G1 X98.426 Y128.98 E23.4562
G1 X97.719 Y129.226 E23.4811
G1 X96.99 Y129.394 E23.50598
G1 X96.248 Y129.484 E23.53084
G1 X85.582 Y129.5 E23.88559
G1 X84.835 Y129.46 E23.91047
G1 X84.097 Y129.341 E23.93534
G1 X83.375 Y129.143 E23.96024
G1 X82.679 Y128.87 E23.9851
G1 X82.016 Y128.523 E24.00999
G1 X81.393 Y128.108 E24.03489
G1 X80.78 Y127.578 E24.06184
G1 X80.177 Y128.092 E24.08819
G1 X79.557 Y128.509 E24.11305
G1 X78.895 Y128.858 E24.13794
G1 X78.2 Y129.134 E24.16281
G1 X77.479 Y129.335 E24.1877
G1 X76.741 Y129.457 E24.21258
G1 X75.966 Y129.5 E24.2384
G1 X72.255 Y129.5 E24.36183
G1 X71.508 Y129.46 E24.38671
G1 X70.77 Y129.341 E24.41157
G1 X70.048 Y129.143 E24.43647
G1 X69.352 Y128.87 E24.46134
G1 X68.689 Y128.523 E24.48623
G1 X68.066 Y128.108 E24.51112
G1 X67.305 Y127.45 E24.54459
G1 X66.674 Y126.762 E24.57564
G1 X66.237 Y126.156 E24.60048
G1 X65.866 Y125.506 E24.62538
G1 X65.567 Y124.82 E24.65027
G1 X65.343 Y124.106 E24.67516
G1 X65.196 Y123.373 E24.70002
G1 X65.124 Y122.371 E24.73343
G1 X65.123 Y117.819 E24.88483
G1 X65.163 Y117.072 E24.90971
G1 X65.282 Y116.333 E24.93461
G1 X65.48 Y115.611 E24.95951
G1 X65.753 Y114.915 E24.98438
G1 X66.099 Y114.252 E25.00925
G1 X66.514 Y113.629 E25.03415
G1 X67.173 Y112.867 E25.06766
G1 X67.847 Y112.25 E25.09805
G1 X68.453 Y111.813 E25.1229
G1 X69.103 Y111.442 E25.14779
G1 X69.789 Y111.143 E25.17268
G1 X70.503 Y110.919 E25.19757
G1 X71.236 Y110.772 E25.22243
G1 X72.24 Y110.7 E25.25591
G1 X77.523 Y110.7 E25.43163
G1 X78.27 Y110.74 E25.45651
G1 X79.008 Y110.859 E25.48137
G1 X79.73 Y111.057 E25.50627
G1 X80.426 Y111.33 E25.53114
G1 X81.089 Y111.677 E25.55603
G1 X81.712 Y112.092 E25.58092
G1 X82.116 Y112.43 E25.59844
G1 X82.445 Y112.242 E25.61105
G1 X83.131 Y111.943 E25.63594
G1 X83.845 Y111.719 E25.66082
G1 X84.578 Y111.572 E25.68569
G1 X84.875 Y111.551 E25.69559
G1 X84.875 Y89.122 E26.44158
G1 X84.309 Y89.257 E26.46094
G1 X83.567 Y89.351 E26.48581
G1 X83.046 Y89.369 E26.50315
G1 X74.315 Y89.368 E26.79355
G1 X73.568 Y89.328 E26.81843
G1 X72.83 Y89.209 E26.84329
G1 X72.108 Y89.011 E26.86819
G1 X71.412 Y88.738 E26.89306
G1 X70.749 Y88.391 E26.91795
G1 X70.126 Y87.976 E26.94284
G1 X69.365 Y87.318 E26.9763
G1 X68.88 Y86.833 E26.99912
G1 X68.38 Y86.276 E27.02401
G1 X67.943 Y85.67 E27.04886
G1 X67.572 Y85.02 E27.07375
G1 X67.273 Y84.334 E27.09864
G1 X67.049 Y83.62 E27.12353
G1 X66.902 Y82.887 E27.1484
G1 X66.864 Y82.36 E27.16597
G1 X66.64 Y81.646 E27.19086
G1 X66.493 Y80.913 E27.21573
G1 X66.421 Y79.912 E27.24911
G1 X66.42 Y77.62 E27.32534
G1 X66.46 Y76.873 E27.35022
G1 X66.579 Y76.135 E27.37508
G1 X66.776 Y75.413 E27.39997
G1 X67.049 Y74.717 E27.42484
G1 X67.395 Y74.053 E27.44974
G1 X67.81 Y73.431 E27.47461
G1 X68.47 Y72.667 E27.50819
G0 F2400 X68.753 Y72.95
G1 F1200 X69.411 Y72.349 E27.53783
G1 X70.002 Y71.926 E27.562
G1 X70.636 Y71.572 E27.58616
G1 X71.305 Y71.289 E27.61032
G1 X72.001 Y71.081 E27.63448
G1 X72.716 Y70.951 E27.65865
G1 X73.537 Y70.9 E27.68601
G1 X83.069 Y70.9 E28.00304
G1 X83.794 Y70.94 E28.02719
G1 X84.511 Y71.059 E28.05137
G1 X85.21 Y71.257 E28.07553
G1 X85.883 Y71.53 E28.09969
G1 X86.522 Y71.875 E28.12384
G1 X87.119 Y72.289 E28.148
G1 X87.645 Y71.926 E28.16926
G1 X88.279 Y71.572 E28.19341
