;FLAVOR:Marlin
;TIME:5811
;Filament used: 3.09672m
;Layer height: 0.1
;MINX:69.95
;MINY:77.371
;MINZ:0.2
;MAXX:130.05
;MAXY:126.175
;MAXZ:25
;Generated with Cura_SteamEngine 4.5.0
M140 S50
M105
M190 S50
M104 S190
M105
M109 S190
M82 ;absolute extrusion mode
G90G28 ;Home
G1 Z15.0 F6000 ;Move the platform down 15mm
;Prime the extruder
G92 E0
G1 F200 E3
G92 E0
G92 E0
G90
G92 E0
G1 F3000 E-3
;LAYER_COUNT:249
;LAYER:0
M107
G0 F2400 X72.938 Y80.504 Z0.2
;TYPE:SKIRT
G1 F3000 E0
G1 F1200 X73.574 Y80.037 E0.02624
G1 X74.254 Y79.636 E0.0525
G1 X74.972 Y79.306 E0.07878
G1 X75.719 Y79.051 E0.10504
G1 X76.488 Y78.872 E0.1313
G1 X77.272 Y78.772 E0.15758
G1 X77.865 Y78.749 E0.17732
G1 X82.431 Y78.748 E0.32919
G1 X83.22 Y78.788 E0.35546
G1 X84.001 Y78.907 E0.38174
G1 X84.765 Y79.105 E0.40799
G1 X85.506 Y79.379 E0.43427
G1 X86.215 Y79.726 E0.46052
G1 X86.885 Y80.144 E0.48679
G1 X87.51 Y80.627 E0.51306
G1 X87.948 Y81.033 E0.53292
G1 X88.595 Y81.736 E0.5647
G1 X89.062 Y82.372 E0.59094
G1 X89.463 Y83.052 E0.6172
G1 X89.793 Y83.77 E0.64348
G1 X90.048 Y84.517 E0.66973
G1 X90.227 Y85.286 E0.696
G1 X90.327 Y86.07 E0.72228
G1 X90.35 Y86.665 E0.74209
G1 X90.35 Y88.584 E0.80591
G1 X90.31 Y89.373 E0.83219
G1 X90.191 Y90.153 E0.85843
G1 X89.993 Y90.918 E0.88471
G1 X89.719 Y91.658 E0.91096
G1 X89.55 Y92.002 E0.92371
G1 X89.55 Y95.575 E1.04255
G1 X110.026 Y95.575 E1.72358
G1 X109.95 Y94.586 E1.75657
G1 X109.947 Y92.704 E1.81917
G1 X109.95 Y85.727 E2.05122
G1 X109.99 Y84.938 E2.0775
G1 X110.11 Y84.157 E2.10378
G1 X110.308 Y83.393 E2.13003
G1 X110.583 Y82.653 E2.15629
G1 X110.931 Y81.944 E2.18256
G1 X111.348 Y81.274 E2.2088
G1 X111.832 Y80.649 E2.2351
G1 X112.235 Y80.215 E2.25479
G1 X112.938 Y79.568 E2.28657
G1 X113.574 Y79.101 E2.31282
G1 X114.254 Y78.7 E2.33907
G1 X114.972 Y78.37 E2.36535
G1 X115.719 Y78.115 E2.39161
G1 X116.488 Y77.936 E2.41787
G1 X117.186 Y77.847 E2.44127
G1 X117.693 Y77.674 E2.45909
G1 X118.462 Y77.495 E2.48535
G1 X119.246 Y77.395 E2.51164
G1 X119.838 Y77.372 E2.53134
G1 X122.13 Y77.371 E2.60757
G1 X122.918 Y77.411 E2.63382
G1 X123.699 Y77.53 E2.66009
G1 X124.464 Y77.727 E2.68637
G1 X125.204 Y78.001 E2.71261
G1 X125.913 Y78.348 E2.73887
G1 X126.584 Y78.766 E2.76516
G1 X127.209 Y79.248 E2.79141
G1 X127.648 Y79.656 E2.81135
G1 X128.295 Y80.359 E2.84312
G1 X128.762 Y80.995 E2.86937
G1 X129.163 Y81.675 E2.89562
G1 X129.493 Y82.393 E2.92191
G1 X129.748 Y83.14 E2.94816
G1 X129.927 Y83.909 E2.97442
G1 X130.027 Y84.693 E3.00071
G1 X130.05 Y85.288 E3.02051
G1 X130.05 Y94.581 E3.3296
G1 X130.01 Y95.37 E3.35587
G1 X129.891 Y96.15 E3.38212
G1 X129.693 Y96.915 E3.4084
G1 X129.419 Y97.655 E3.43464
G1 X129.071 Y98.364 E3.46091
G1 X128.902 Y98.636 E3.47156
G1 X129.163 Y99.079 E3.48867
G1 X129.493 Y99.797 E3.51495
G1 X129.748 Y100.544 E3.5412
G1 X129.927 Y101.313 E3.56746
G1 X130.027 Y102.097 E3.59375
G1 X130.05 Y102.692 E3.61355
G1 X130.05 Y106.258 E3.73216
G1 X130.01 Y107.047 E3.75844
G1 X129.891 Y107.827 E3.78468
G1 X129.693 Y108.592 E3.81096
G1 X129.419 Y109.332 E3.83721
G1 X129.071 Y110.041 E3.86348
G1 X128.901 Y110.315 E3.8742
G1 X129.129 Y110.694 E3.88891
G1 X129.466 Y111.409 E3.9152
G1 X129.728 Y112.154 E3.94147
G1 X129.914 Y112.921 E3.96772
G1 X130.021 Y113.703 E3.99397
G1 X130.05 Y114.371 E4.01621
G1 X130.05 Y118.258 E4.14549
G1 X130.01 Y119.047 E4.17177
G1 X129.891 Y119.827 E4.19801
G1 X129.693 Y120.592 E4.22429
G1 X129.419 Y121.332 E4.25054
G1 X129.071 Y122.041 E4.27681
G1 X128.653 Y122.712 E4.3031
G1 X128.17 Y123.336 E4.32934
G1 X127.765 Y123.773 E4.34916
G1 X127.062 Y124.42 E4.38094
G1 X126.426 Y124.887 E4.40718
G1 X125.746 Y125.288 E4.43344
G1 X125.028 Y125.618 E4.45972
G1 X124.281 Y125.873 E4.48597
G1 X123.512 Y126.052 E4.51224
G1 X122.728 Y126.152 E4.53852
G1 X122.133 Y126.175 E4.55833
G1 X93.985 Y126.175 E5.49453
G1 X93.362 Y126.15 E5.51527
G1 X92.813 Y126.106 E5.53359
G1 X92.454 Y126.059 E5.54563
G1 X91.724 Y126.152 E5.57011
G1 X91.129 Y126.175 E5.58991
G1 X83.322 Y126.175 E5.84957
G1 X82.533 Y126.135 E5.87585
G1 X81.753 Y126.016 E5.90209
G1 X80.988 Y125.818 E5.92838
G1 X80.248 Y125.544 E5.95462
G1 X79.539 Y125.196 E5.98089
G1 X79.041 Y124.896 E6.00023
G1 X78.396 Y124.441 E6.02648
G1 X77.8 Y123.922 E6.05277
G1 X77.26 Y123.346 E6.07903
G1 X76.781 Y122.719 E6.10527
G1 X76.368 Y122.046 E6.13153
G1 X76.122 Y121.555 E6.1498
G1 X74.321 Y117.624 E6.29361
G1 X74.029 Y116.89 E6.31989
G1 X73.812 Y116.131 E6.34614
G1 X73.674 Y115.353 E6.37242
G1 X73.614 Y114.566 E6.39867
G1 X73.635 Y113.776 E6.42496
G1 X73.735 Y112.993 E6.45121
G1 X72.789 Y112.295 E6.49031
G1 X72.352 Y111.89 E6.51013
G1 X71.705 Y111.187 E6.54191
G1 X71.238 Y110.551 E6.56815
G1 X70.837 Y109.871 E6.59441
G1 X70.507 Y109.153 E6.62069
G1 X70.252 Y108.406 E6.64694
G1 X70.073 Y107.637 E6.67321
G1 X69.973 Y106.853 E6.69949
G1 X69.95 Y106.258 E6.7193
G1 X69.95 Y86.666 E7.37093
G1 X69.99 Y85.877 E7.39721
G1 X70.109 Y85.097 E7.42345
G1 X70.307 Y84.332 E7.44973
G1 X70.581 Y83.592 E7.47598
G1 X70.929 Y82.883 E7.50225
G1 X71.347 Y82.212 E7.52854
G1 X71.83 Y81.588 E7.55478
G1 X72.235 Y81.151 E7.5746
G1 X72.938 Y80.504 E7.60638
G0 F2400 X73.206 Y80.802
G1 F1200 X73.828 Y80.349 E7.63197
G1 X74.493 Y79.963 E7.65755
G1 X75.195 Y79.648 E7.68314
G1 X75.926 Y79.408 E7.70873
G1 X76.677 Y79.245 E7.73429
G1 X77.442 Y79.161 E7.75988
G1 X82.431 Y79.148 E7.92582
G1 X83.2 Y79.188 E7.95143
G1 X83.959 Y79.307 E7.97698
G1 X84.703 Y79.505 E8.00259
G1 X85.422 Y79.778 E8.02817
G1 X86.108 Y80.125 E8.05374
G1 X86.755 Y80.541 E8.07932
G1 X87.355 Y81.022 E8.1049
G1 X87.783 Y81.432 E8.12461
G1 X88.297 Y82.004 E8.15019
G1 X88.75 Y82.626 E8.17578
G1 X89.136 Y83.291 E8.20136
G1 X89.451 Y83.993 E8.22695
G1 X89.691 Y84.724 E8.25254
G1 X89.854 Y85.475 E8.2781
G1 X89.938 Y86.24 E8.3037
G1 X89.95 Y88.584 E8.38166
G1 X89.91 Y89.352 E8.40724
G1 X89.791 Y90.112 E8.43282
G1 X89.593 Y90.855 E8.4584
G1 X89.319 Y91.574 E8.48399
G1 X89.15 Y91.908 E8.49644
G1 X89.15 Y95.975 E8.63171
G1 X110.492 Y95.975 E9.34155
G1 X110.398 Y95.412 E9.36053
G1 X110.35 Y94.586 E9.38805
G1 X110.347 Y92.704 E9.45065
G1 X110.35 Y85.727 E9.6827
G1 X110.39 Y84.959 E9.70828
G1 X110.51 Y84.199 E9.73387
G1 X110.708 Y83.456 E9.75945
G1 X110.982 Y82.737 E9.78504
G1 X111.329 Y82.051 E9.81061
G1 X111.746 Y81.404 E9.83621
G1 X112.228 Y80.804 E9.86181
G1 X112.634 Y80.38 E9.88133
G1 X113.206 Y79.866 E9.90691
G1 X113.828 Y79.413 E9.9325
G1 X114.493 Y79.027 E9.95808
G1 X115.195 Y78.712 E9.98367
G1 X115.926 Y78.472 E10.00926
G1 X116.677 Y78.309 E10.03482
G1 X117.242 Y78.247 E10.05372
G1 X117.9 Y78.031 E10.07676
G1 X118.651 Y77.868 E10.10232
G1 X119.416 Y77.784 E10.12791
G1 X122.13 Y77.771 E10.21818
G1 X122.898 Y77.811 E10.24376
G1 X123.658 Y77.93 E10.26935
G1 X124.401 Y78.127 E10.29491
G1 X125.12 Y78.401 E10.3205
G1 X125.807 Y78.747 E10.34609
G1 X126.454 Y79.163 E10.37167
G1 X127.054 Y79.644 E10.39725
G1 X127.483 Y80.055 E10.41701
G1 X127.997 Y80.627 E10.44259
G1 X128.45 Y81.249 E10.46818
G1 X128.836 Y81.914 E10.49375
G1 X129.151 Y82.616 E10.51934
G1 X129.391 Y83.347 E10.54493
G1 X129.554 Y84.098 E10.57049
G1 X129.638 Y84.863 E10.59609
G1 X129.65 Y94.581 E10.91931
G1 X129.61 Y95.349 E10.94489
G1 X129.491 Y96.109 E10.97048
G1 X129.293 Y96.852 E10.99605
G1 X129.019 Y97.571 E11.02164
G1 X128.672 Y98.257 E11.04721
G1 X128.433 Y98.629 E11.06192
G1 X128.836 Y99.318 E11.08847
G1 X129.151 Y100.02 E11.11406
G1 X129.391 Y100.751 E11.13965
G1 X129.554 Y101.502 E11.16521
G1 X129.638 Y102.267 E11.19081
G1 X129.65 Y106.258 E11.32355
G1 X129.61 Y107.026 E11.34913
G1 X129.491 Y107.786 E11.37471
G1 X129.293 Y108.529 E11.40029
G1 X129.019 Y109.248 E11.42588
G1 X128.672 Y109.934 E11.45145
G1 X128.43 Y110.31 E11.46632
G1 X128.877 Y111.078 E11.49588
G1 X129.183 Y111.784 E11.52147
G1 X129.414 Y112.518 E11.54706
G1 X129.568 Y113.271 E11.57262
G1 X129.65 Y114.371 E11.60931
G1 X129.65 Y118.258 E11.73859
G1 X129.61 Y119.026 E11.76417
G1 X129.491 Y119.786 E11.78976
G1 X129.293 Y120.529 E11.81533
G1 X129.019 Y121.248 E11.84092
G1 X128.672 Y121.934 E11.86649
G1 X128.256 Y122.581 E11.89208
G1 X127.775 Y123.181 E11.91765
G1 X127.366 Y123.608 E11.93732
G1 X126.794 Y124.122 E11.9629
G1 X126.172 Y124.575 E11.98849
G1 X125.507 Y124.961 E12.01406
G1 X124.805 Y125.276 E12.03966
G1 X124.074 Y125.516 E12.06525
G1 X123.323 Y125.679 E12.09081
G1 X122.558 Y125.763 E12.1164
G1 X93.985 Y125.775 E13.06675
G1 X93.394 Y125.751 E13.08642
G1 X92.845 Y125.707 E13.10474
G1 X92.438 Y125.653 E13.11839
G1 X91.554 Y125.763 E13.14802
G1 X83.322 Y125.775 E13.42182
G1 X82.554 Y125.735 E13.4474
G1 X81.794 Y125.616 E13.47298
G1 X81.051 Y125.418 E13.49856
G1 X80.332 Y125.144 E13.52415
G1 X79.364 Y124.628 E13.56063
G1 X78.627 Y124.114 E13.59052
G1 X78.049 Y123.607 E13.61609
G1 X77.527 Y123.042 E13.64168
G1 X77.066 Y122.426 E13.66727
G1 X76.672 Y121.766 E13.69283
G1 X74.684 Y117.457 E13.85067
G1 X74.401 Y116.742 E13.87624
G1 X74.193 Y116.002 E13.90181
G1 X74.063 Y115.244 E13.92739
G1 X74.013 Y114.476 E13.95299
G1 X74.042 Y113.708 E13.97855
G1 X74.151 Y112.946 E14.00415
G1 X74.189 Y112.796 E14.0093
G1 X73.544 Y112.381 E14.03481
G1 X72.944 Y111.9 E14.06038
G1 X72.517 Y111.491 E14.08005
G1 X72.003 Y110.919 E14.10563
G1 X71.55 Y110.297 E14.13122
G1 X71.164 Y109.632 E14.15679
G1 X70.849 Y108.93 E14.18239
G1 X70.609 Y108.199 E14.20798
G1 X70.446 Y107.448 E14.23354
G1 X70.362 Y106.683 E14.25913
G1 X70.35 Y86.666 E14.9249
G1 X70.39 Y85.898 E14.95048
G1 X70.509 Y85.138 E14.97606
G1 X70.707 Y84.395 E15.00164
G1 X70.981 Y83.676 E15.02723
G1 X71.328 Y82.99 E15.0528
G1 X71.744 Y82.343 E15.07838
G1 X72.225 Y81.743 E15.10396
G1 X72.634 Y81.316 E15.12363
G1 X73.206 Y80.802 E15.1492
G0 F2400 X73.474 Y81.099
G1 F1200 X74.08 Y80.662 E15.17405
G1 X74.73 Y80.291 E15.19895
G1 X75.416 Y79.992 E15.22384
G1 X76.13 Y79.768 E15.24873
G1 X76.863 Y79.621 E15.27359
G1 X77.865 Y79.549 E15.307
G1 X82.431 Y79.548 E15.45887
G1 X83.178 Y79.588 E15.48375
G1 X83.917 Y79.707 E15.50865
G1 X84.639 Y79.905 E15.53355
G1 X85.335 Y80.178 E15.55841
G1 X85.998 Y80.524 E15.58329
G1 X86.621 Y80.939 E15.60818
G1 X87.383 Y81.598 E15.64169
G1 X88 Y82.272 E15.67208
G1 X88.437 Y82.878 E15.69693
G1 X88.808 Y83.528 E15.72183
G1 X89.107 Y84.214 E15.74671
G1 X89.331 Y84.928 E15.7716
G1 X89.478 Y85.661 E15.79647
G1 X89.55 Y86.665 E15.82995
G1 X89.55 Y88.584 E15.89377
G1 X89.51 Y89.331 E15.91866
G1 X89.391 Y90.069 E15.94352
G1 X89.193 Y90.791 E15.96842
G1 X88.92 Y91.487 E15.99328
G1 X88.75 Y91.812 E16.00548
G1 X88.75 Y96.375 E16.15725
G1 X110.993 Y96.375 E16.89705
G1 X110.862 Y95.823 E16.91592
G1 X110.768 Y95.08 E16.94083
G1 X110.747 Y92.703 E17.0199
G1 X110.75 Y85.727 E17.25192
G1 X110.79 Y84.98 E17.2768
G1 X110.91 Y84.242 E17.30167
G1 X111.108 Y83.52 E17.32657
G1 X111.382 Y82.824 E17.35145
G1 X111.728 Y82.161 E17.37632
G1 X112.143 Y81.539 E17.40119
G1 X112.8 Y80.78 E17.43458
G1 X113.474 Y80.163 E17.46497
G1 X114.08 Y79.726 E17.48982
G1 X114.73 Y79.355 E17.51471
G1 X115.416 Y79.056 E17.5396
G1 X116.13 Y78.832 E17.56449
G1 X116.863 Y78.685 E17.58936
G1 X117.302 Y78.654 E17.60399
G1 X118.104 Y78.391 E17.63207
G1 X118.837 Y78.244 E17.65693
G1 X119.838 Y78.172 E17.69031
G1 X122.13 Y78.171 E17.76654
G1 X122.877 Y78.211 E17.79142
G1 X123.615 Y78.33 E17.81629
G1 X124.337 Y78.527 E17.84118
G1 X125.033 Y78.8 E17.86605
G1 X125.697 Y79.146 E17.89095
G1 X126.319 Y79.561 E17.91582
G1 X127.083 Y80.221 E17.9494
G1 X127.7 Y80.895 E17.97979
G1 X128.137 Y81.501 E18.00464
G1 X128.508 Y82.151 E18.02953
G1 X128.807 Y82.837 E18.05442
G1 X129.031 Y83.551 E18.07931
G1 X129.178 Y84.284 E18.10418
G1 X129.25 Y85.288 E18.13765
G1 X129.25 Y94.581 E18.44674
G1 X129.21 Y95.328 E18.47162
G1 X129.091 Y96.066 E18.49649
G1 X128.893 Y96.788 E18.52139
G1 X128.62 Y97.484 E18.54625
G1 X128.273 Y98.147 E18.57114
G1 X127.945 Y98.639 E18.59081
G1 X128.508 Y99.555 E18.62657
G1 X128.807 Y100.241 E18.65146
G1 X129.031 Y100.955 E18.67635
G1 X129.178 Y101.688 E18.70121
G1 X129.25 Y102.692 E18.73469
G1 X129.25 Y106.258 E18.8533
G1 X129.21 Y107.005 E18.87818
G1 X129.091 Y107.743 E18.90304
G1 X128.893 Y108.465 E18.92794
G1 X128.62 Y109.161 E18.95281
G1 X128.273 Y109.824 E18.9777
G1 X127.946 Y110.314 E18.99729
G1 X128.269 Y110.797 E19.01662
G1 X128.616 Y111.46 E19.0415
G1 X128.89 Y112.156 E19.06638
G1 X129.089 Y112.877 E19.09126
G1 X129.209 Y113.616 E19.11616
G1 X129.25 Y114.371 E19.14131
G1 X129.25 Y118.258 E19.27059
G1 X129.21 Y119.005 E19.29547
G1 X129.091 Y119.743 E19.32034
G1 X128.893 Y120.465 E19.34524
G1 X128.62 Y121.161 E19.3701
G1 X128.273 Y121.824 E19.39499
G1 X127.858 Y122.447 E19.41989
G1 X127.2 Y123.208 E19.45335
G1 X126.526 Y123.825 E19.48374
G1 X125.92 Y124.262 E19.50859
G1 X125.27 Y124.633 E19.53348
G1 X124.584 Y124.932 E19.55837
G1 X123.87 Y125.156 E19.58326
G1 X123.137 Y125.303 E19.60813
G1 X122.133 Y125.375 E19.64161
G1 X93.985 Y125.375 E20.57781
G1 X93.426 Y125.353 E20.59642
G1 X92.877 Y125.309 E20.61474
G1 X92.414 Y125.247 E20.63027
G1 X92.133 Y125.303 E20.6398
G1 X91.129 Y125.375 E20.67328
G1 X83.322 Y125.375 E20.93295
G1 X82.575 Y125.335 E20.95783
G1 X81.837 Y125.216 E20.98269
G1 X81.115 Y125.018 E21.00759
G1 X80.419 Y124.745 E21.03246
G1 X79.578 Y124.29 E21.06426
G1 X78.859 Y123.787 E21.09344
G1 X78.299 Y123.291 E21.11833
G1 X77.795 Y122.738 E21.14321
G1 X77.353 Y122.135 E21.16808
G1 X76.849 Y121.222 E21.20276
G1 X75.048 Y117.291 E21.34658
G1 X74.773 Y116.595 E21.37147
G1 X74.574 Y115.874 E21.39635
G1 X74.453 Y115.136 E21.42122
G1 X74.412 Y114.389 E21.4461
G1 X74.451 Y113.642 E21.47098
G1 X74.569 Y112.903 E21.49587
G1 X74.656 Y112.584 E21.50687
G1 X74.301 Y112.398 E21.5202
G1 X73.678 Y111.983 E21.5451
G1 X72.917 Y111.325 E21.57856
G1 X72.3 Y110.651 E21.60895
G1 X71.863 Y110.045 E21.6338
G1 X71.492 Y109.395 E21.65869
G1 X71.193 Y108.709 E21.68358
G1 X70.969 Y107.995 E21.70847
G1 X70.822 Y107.262 E21.73334
G1 X70.75 Y106.258 E21.76681
G1 X70.75 Y86.666 E22.41845
G1 X70.79 Y85.919 E22.44333
G1 X70.909 Y85.181 E22.46819
G1 X71.107 Y84.459 E22.49309
G1 X71.38 Y83.763 E22.51796
G1 X71.727 Y83.1 E22.54285
G1 X72.142 Y82.477 E22.56774
G1 X72.8 Y81.716 E22.6012
G1 X73.474 Y81.099 E22.6316
G0 F2400 X73.741 Y81.398
G1 F1200 X74.332 Y80.975 E22.65577
G1 X74.966 Y80.621 E22.67992
G1 X75.635 Y80.338 E22.70408
G1 X76.331 Y80.13 E22.72824
G1 X77.046 Y80 E22.75241
G1 X77.866 Y79.949 E22.77974
G1 X82.432 Y79.948 E22.9316
G1 X83.157 Y79.988 E22.95575
G1 X83.873 Y80.107 E22.9799
G1 X84.572 Y80.304 E23.00405
G1 X85.246 Y80.577 E23.02824
G1 X85.885 Y80.922 E23.05239
G1 X86.482 Y81.336 E23.07655
G1 X87.1 Y81.881 E23.10396
G1 X87.701 Y82.539 E23.1336
G1 X88.124 Y83.13 E23.15777
G1 X88.478 Y83.764 E23.18192
G1 X88.761 Y84.433 E23.20608
G1 X88.969 Y85.129 E23.23024
G1 X89.099 Y85.844 E23.25441
G1 X89.15 Y86.665 E23.28177
G1 X89.15 Y88.584 E23.3456
G1 X89.11 Y89.309 E23.36975
G1 X88.991 Y90.026 E23.39392
G1 X88.793 Y90.725 E23.41809
G1 X88.52 Y91.398 E23.44224
G1 X88.35 Y91.713 E23.45415
G1 X88.35 Y96.775 E23.62251
G1 X111.534 Y96.775 E24.39361
G1 X111.352 Y96.194 E24.41386
G1 X111.213 Y95.481 E24.43803
G1 X111.15 Y94.585 E24.4679
G1 X111.147 Y92.703 E24.5305
G1 X111.15 Y85.727 E24.76252
G1 X111.19 Y85.002 E24.78667
G1 X111.31 Y84.285 E24.81085
G1 X111.508 Y83.587 E24.83498
G1 X111.781 Y82.914 E24.85913
G1 X112.127 Y82.275 E24.8833
G1 X112.54 Y81.678 E24.90745
G1 X113.083 Y81.063 E24.93474
G1 X113.741 Y80.462 E24.96438
G1 X114.332 Y80.039 E24.98855
G1 X114.966 Y79.685 E25.0127
G1 X115.635 Y79.402 E25.03686
G1 X116.331 Y79.194 E25.06102
G1 X117.046 Y79.064 E25.08519
G1 X117.421 Y79.041 E25.09769
G1 X118.305 Y78.753 E25.12861
G1 X119.02 Y78.623 E25.15278
G1 X119.838 Y78.572 E25.18004
G1 X122.13 Y78.571 E25.25627
G1 X122.855 Y78.611 E25.28042
G1 X123.572 Y78.73 E25.3046
G1 X124.271 Y78.927 E25.32875
G1 X124.944 Y79.2 E25.35291
G1 X125.583 Y79.545 E25.37706
G1 X126.181 Y79.958 E25.40123
G1 X126.8 Y80.504 E25.42868
G1 X127.401 Y81.162 E25.45832
G1 X127.824 Y81.753 E25.4825
G1 X128.178 Y82.387 E25.50665
G1 X128.461 Y83.056 E25.53081
G1 X128.669 Y83.752 E25.55497
G1 X128.799 Y84.467 E25.57914
G1 X128.85 Y85.288 E25.6065
G1 X128.85 Y94.581 E25.91559
G1 X128.81 Y95.306 E25.93974
G1 X128.691 Y96.023 E25.96391
