;FLAVOR:Marlin
;TIME:5806
;Filament used: 2.39711m
;Layer height: 0.1
;MINX:69.423
;MINY:53.858
;MINZ:0.2
;MAXX:129.524
;MAXY:164.308
;MAXZ:31.3
;Generated with Cura_SteamEngine 4.5.0
M140 S50
M105
M190 S50
M104 S190
M105
M109 S190
M82 ;absolute extrusion mode
G90G28 ;Home
G1 Z15.0 F6000 ;Move the platform down 15mm
;Prime the extruder
G92 E0
G1 F200 E3
G92 E0
G92 E0
G90
G92 E0
G1 F3000 E-3
;LAYER_COUNT:312
;LAYER:0
M107
G0 F2400 X71.298 Y56.78 Z0.2
;TYPE:SKIRT
G1 F3000 E0
G1 F1200 X71.841 Y56.207 E0.02626
G1 X72.44 Y55.692 E0.05253
G1 X73.087 Y55.24 E0.07878
G1 X73.777 Y54.856 E0.10504
G1 X74.502 Y54.543 E0.13131
G1 X75.255 Y54.305 E0.15758
G1 X76.028 Y54.145 E0.18383
G1 X76.814 Y54.064 E0.21011
G1 X121.666 Y54.03 E1.7019
G1 X122.656 Y54.087 E1.73488
G1 X123.434 Y54.221 E1.76113
G1 X124.195 Y54.433 E1.78741
G1 X124.931 Y54.721 E1.8137
G1 X125.633 Y55.081 E1.83994
G1 X126.296 Y55.511 E1.86622
G1 X126.911 Y56.006 E1.89248
G1 X127.474 Y56.56 E1.91875
G1 X127.977 Y57.168 E1.94499
G1 X128.416 Y57.825 E1.97127
G1 X128.787 Y58.522 E1.99754
G1 X129.086 Y59.253 E2.02381
G1 X129.309 Y60.01 E2.05005
G1 X129.454 Y60.787 E2.07634
G1 X129.524 Y61.831 E2.11114
G1 X129.524 Y64.973 E2.21565
G1 X129.318 Y72.688 E2.47234
G1 X128.685 Y80.551 E2.73471
G1 X127.622 Y88.397 E2.99805
G1 X126.131 Y96.176 E3.26149
G1 X124.22 Y103.857 E3.52475
G1 X109.392 Y156.785 E5.35292
G1 X109.177 Y157.438 E5.37579
G1 X108.706 Y158.572 E5.41663
G1 X108.451 Y159.042 E5.43442
G1 X107.799 Y160.072 E5.47496
G1 X107.463 Y160.499 E5.49303
G1 X106.643 Y161.406 E5.5337
G1 X106.218 Y161.787 E5.55268
G1 X105.252 Y162.539 E5.5934
G1 X104.789 Y162.828 E5.61155
G1 X103.713 Y163.402 E5.65212
G1 X103.176 Y163.619 E5.67138
G1 X102.015 Y163.997 E5.71199
G1 X101.482 Y164.111 E5.73012
G1 X100.271 Y164.286 E5.77082
G1 X99.688 Y164.308 E5.79022
G1 X98.471 Y164.268 E5.83072
G1 X97.893 Y164.187 E5.85013
G1 X96.697 Y163.934 E5.89079
G1 X96.178 Y163.766 E5.90893
G1 X95.044 Y163.313 E5.94955
G1 X94.532 Y163.043 E5.9688
G1 X93.495 Y162.399 E6.0094
G1 X93.064 Y162.065 E6.02754
G1 X92.149 Y161.252 E6.06825
G1 X91.765 Y160.83 E6.08723
G1 X91.006 Y159.871 E6.1279
G1 X90.715 Y159.413 E6.14595
G1 X90.132 Y158.341 E6.18654
G1 X89.92 Y157.833 E6.20485
G1 X89.557 Y156.785 E6.24173
G1 X74.804 Y104.15 E8.05985
G1 X72.948 Y96.763 E8.31318
G1 X71.424 Y88.979 E8.57699
G1 X70.327 Y81.12 E8.84092
G1 X69.662 Y73.212 E9.10486
G1 X69.429 Y65.258 E9.36953
G1 X69.423 Y61.86 E9.48255
G1 X69.462 Y61.072 E9.50879
G1 X69.581 Y60.291 E9.53506
G1 X69.778 Y59.526 E9.56134
G1 X70.052 Y58.785 E9.58762
G1 X70.398 Y58.076 E9.61386
G1 X70.815 Y57.405 E9.64013
G1 X71.298 Y56.78 E9.6664
G0 F2400 X71.694 Y56.935
G1 F1200 X72.234 Y56.388 E9.69197
G1 X72.828 Y55.899 E9.71756
G1 X73.47 Y55.475 E9.74315
G1 X74.152 Y55.12 E9.76872
G1 X74.868 Y54.838 E9.79431
G1 X75.609 Y54.631 E9.8199
G1 X76.367 Y54.503 E9.84547
G1 X77.219 Y54.453 E9.87386
G1 X121.666 Y54.43 E11.35217
G1 X122.628 Y54.486 E11.38422
G1 X123.386 Y54.62 E11.40982
G1 X124.125 Y54.831 E11.43539
G1 X124.839 Y55.118 E11.46098
G1 X125.519 Y55.478 E11.48657
G1 X126.158 Y55.906 E11.51215
G1 X126.749 Y56.398 E11.53773
G1 X127.285 Y56.949 E11.56329
G1 X127.762 Y57.553 E11.58889
G1 X128.174 Y58.203 E11.61449
G1 X128.515 Y58.892 E11.64006
G1 X128.784 Y59.613 E11.66565
G1 X128.976 Y60.358 E11.69124
G1 X129.09 Y61.118 E11.7168
G1 X129.124 Y61.831 E11.74054
G1 X129.124 Y64.973 E11.84505
G1 X128.918 Y72.677 E12.10138
G1 X128.286 Y80.518 E12.36301
G1 X127.226 Y88.343 E12.62565
G1 X125.739 Y96.1 E12.88835
G1 X123.832 Y103.76 E13.1509
G1 X109.007 Y156.677 E14.97869
G1 X108.803 Y157.297 E15.0004
G1 X108.339 Y158.411 E15.04054
G1 X107.888 Y159.21 E15.07105
G1 X107.464 Y159.852 E15.09664
G1 X106.878 Y160.571 E15.12749
G1 X106.351 Y161.132 E15.15309
G1 X105.962 Y161.48 E15.17045
G1 X105.012 Y162.218 E15.21046
G1 X104.216 Y162.696 E15.24134
G1 X103.531 Y163.045 E15.26691
G1 X103.04 Y163.243 E15.28452
G1 X101.898 Y163.614 E15.32446
G1 X100.985 Y163.794 E15.35541
G1 X100.221 Y163.889 E15.38102
G1 X99.688 Y163.908 E15.39876
G1 X98.492 Y163.868 E15.43856
G1 X97.963 Y163.794 E15.45632
G1 X96.787 Y163.544 E15.49631
G1 X95.908 Y163.243 E15.52721
G1 X95.199 Y162.944 E15.55281
G1 X94.732 Y162.696 E15.57039
G1 X93.713 Y162.063 E15.61029
G1 X92.986 Y161.48 E15.64129
G1 X92.421 Y160.958 E15.66687
G1 X92.07 Y160.571 E15.68425
G1 X91.325 Y159.628 E15.72422
G1 X90.842 Y158.839 E15.75499
G1 X90.487 Y158.156 E15.78059
G1 X90.295 Y157.692 E15.79729
G1 X89.943 Y156.677 E15.83302
G1 X75.19 Y104.042 E17.65114
G1 X73.336 Y96.665 E17.90413
G1 X71.817 Y88.903 E18.16719
G1 X70.724 Y81.065 E18.43041
G1 X70.061 Y73.179 E18.69362
G1 X69.829 Y65.247 E18.95755
G1 X69.823 Y61.86 E19.07021
G1 X69.862 Y61.092 E19.09578
G1 X69.981 Y60.332 E19.12137
G1 X70.178 Y59.588 E19.14697
G1 X70.451 Y58.869 E19.17255
G1 X70.797 Y58.183 E19.1981
G1 X71.213 Y57.535 E19.22371
G1 X71.694 Y56.935 E19.24929
G0 F2400 X72.089 Y57.094
G1 F1200 X72.626 Y56.574 E19.27415
G1 X73.216 Y56.113 E19.29906
G1 X73.851 Y55.719 E19.32391
G1 X74.525 Y55.394 E19.3488
G1 X75.23 Y55.143 E19.37369
G1 X75.957 Y54.968 E19.39856
G1 X76.699 Y54.873 E19.42344
G1 X77.219 Y54.853 E19.44075
G1 X121.666 Y54.83 E20.91906
G1 X122.6 Y54.886 E20.95018
G1 X123.336 Y55.019 E20.97506
G1 X124.054 Y55.23 E20.99995
G1 X124.745 Y55.516 E21.02482
G1 X125.401 Y55.875 E21.04969
G1 X126.016 Y56.301 E21.07458
G1 X126.582 Y56.791 E21.09948
G1 X127.092 Y57.338 E21.12435
G1 X127.54 Y57.936 E21.1492
G1 X127.923 Y58.579 E21.1741
G1 X128.234 Y59.259 E21.19897
G1 X128.472 Y59.969 E21.22387
G1 X128.632 Y60.699 E21.24873
G1 X128.713 Y61.443 E21.27362
G1 X128.724 Y64.973 E21.39103
G1 X128.518 Y72.666 E21.64699
G1 X127.888 Y80.485 E21.90789
G1 X126.829 Y88.289 E22.16984
G1 X125.346 Y96.024 E22.43179
G1 X123.444 Y103.663 E22.69362
G1 X108.621 Y156.569 E24.52104
G1 X108.429 Y157.155 E24.54155
G1 X107.972 Y158.25 E24.58102
G1 X107.543 Y159.007 E24.60996
G1 X107.13 Y159.631 E24.63484
G1 X106.572 Y160.313 E24.66415
G1 X106.059 Y160.857 E24.68902
G1 X105.372 Y161.45 E24.71921
G1 X104.772 Y161.897 E24.74409
G1 X104.017 Y162.35 E24.77338
G1 X103.35 Y162.688 E24.79825
G1 X102.498 Y163.014 E24.82859
G1 X101.782 Y163.231 E24.85347
G1 X100.915 Y163.4 E24.88285
G1 X100.172 Y163.491 E24.90775
G1 X99.26 Y163.508 E24.93809
G1 X98.513 Y163.468 E24.96297
G1 X97.606 Y163.324 E24.99351
G1 X96.878 Y163.153 E25.01838
G1 X96.044 Y162.867 E25.04771
G1 X95.355 Y162.575 E25.0726
G1 X94.558 Y162.135 E25.10288
G1 X93.931 Y161.727 E25.12776
G1 X93.242 Y161.172 E25.15719
G1 X92.693 Y160.664 E25.18206
G1 X92.096 Y159.982 E25.21221
G1 X91.644 Y159.386 E25.23709
G1 X91.187 Y158.636 E25.2663
G1 X90.843 Y157.972 E25.29117
G1 X90.515 Y157.141 E25.32089
G1 X90.328 Y156.569 E25.3409
G1 X75.575 Y103.934 E27.15902
G1 X73.724 Y96.568 E27.41163
G1 X72.21 Y88.826 E27.674
G1 X71.12 Y81.01 E27.93648
G1 X70.46 Y73.146 E28.19896
G1 X70.229 Y65.236 E28.46216
G1 X70.223 Y61.86 E28.57445
G1 X70.262 Y61.113 E28.59932
G1 X70.381 Y60.374 E28.62422
G1 X70.578 Y59.652 E28.64911
G1 X70.851 Y58.956 E28.67398
G1 X71.196 Y58.292 E28.69887
G1 X71.611 Y57.669 E28.72376
G1 X72.089 Y57.094 E28.74863
G0 F2400 X72.008 Y57.808
G1 F1200 X72.484 Y57.259 E28.7728
G1 X73.018 Y56.766 E28.79697
G1 X73.602 Y56.335 E28.82111
G1 X74.23 Y55.971 E28.84526
G1 X74.895 Y55.677 E28.86944
G1 X75.587 Y55.459 E28.89357
G1 X76.3 Y55.318 E28.91774
G1 X77.22 Y55.253 E28.94842
G1 X121.667 Y55.23 E30.42673
G1 X122.571 Y55.286 E30.45686
G1 X123.285 Y55.418 E30.48101
G1 X123.98 Y55.629 E30.50517
G1 X124.648 Y55.914 E30.52932
G1 X125.28 Y56.271 E30.55346
G1 X125.87 Y56.696 E30.57765
G1 X126.409 Y57.182 E30.60179
G1 X126.891 Y57.725 E30.62594
G1 X127.311 Y58.318 E30.65011
G1 X127.664 Y58.953 E30.67427
G1 X127.944 Y59.623 E30.69842
G1 X128.149 Y60.32 E30.72259
G1 X128.276 Y61.035 E30.74674
G1 X128.324 Y61.831 E30.77326
G1 X128.324 Y64.973 E30.87777
G1 X128.119 Y72.655 E31.13336
G1 X127.489 Y80.453 E31.39357
G1 X126.433 Y88.235 E31.65477
G1 X124.953 Y95.948 E31.91599
G1 X123.056 Y103.566 E32.1771
G1 X108.236 Y156.461 E34.00414
G1 X108.055 Y157.014 E34.02349
G1 X107.606 Y158.088 E34.06221
G1 X107.198 Y158.805 E34.08965
G1 X106.796 Y159.41 E34.11381
G1 X106.267 Y160.055 E34.14156
G1 X105.768 Y160.582 E34.16569
G1 X105.116 Y161.143 E34.1943
G1 X104.533 Y161.576 E34.21846
G1 X103.817 Y162.003 E34.24618
G1 X103.169 Y162.331 E34.27034
G1 X102.362 Y162.638 E34.29906
G1 X101.666 Y162.847 E34.32323
G1 X100.845 Y163.006 E34.35104
G1 X100.123 Y163.094 E34.37523
G1 X99.26 Y163.108 E34.40394
G1 X98.535 Y163.068 E34.42809
G1 X97.676 Y162.93 E34.45703
G1 X96.969 Y162.763 E34.48119
G1 X96.18 Y162.491 E34.50895
G1 X95.512 Y162.206 E34.5331
G1 X94.758 Y161.788 E34.56178
G1 X94.15 Y161.391 E34.58593
G1 X93.498 Y160.865 E34.61379
G1 X92.966 Y160.37 E34.63796
G1 X92.401 Y159.724 E34.6665
G1 X91.963 Y159.144 E34.69068
G1 X91.532 Y158.434 E34.7183
G1 X91.199 Y157.788 E34.74248
G1 X90.889 Y157.001 E34.77061
G1 X90.713 Y156.461 E34.7895
G1 X75.96 Y103.826 E36.60761
G1 X74.112 Y96.471 E36.85985
G1 X72.602 Y88.75 E37.12151
G1 X71.516 Y80.956 E37.38325
G1 X70.858 Y73.113 E37.64502
G1 X70.629 Y65.225 E37.90749
G1 X70.623 Y61.859 E38.01944
G1 X70.662 Y61.134 E38.04359
G1 X70.781 Y60.417 E38.06776
G1 X70.978 Y59.718 E38.09192
G1 X71.25 Y59.045 E38.11606
G1 X71.595 Y58.405 E38.14024
G1 X72.008 Y57.808 E38.16439
G0 F2400 X72.405 Y57.951
G1 F1200 X72.878 Y57.43 E38.18779
G1 X73.408 Y56.966 E38.21122
G1 X73.986 Y56.565 E38.23462
G1 X74.607 Y56.232 E38.25806
G1 X75.261 Y55.972 E38.28146
G1 X75.94 Y55.787 E38.30487
G1 X76.636 Y55.681 E38.32829
G1 X77.22 Y55.653 E38.34773
G1 X121.667 Y55.63 E39.82605
G1 X122.541 Y55.685 E39.85517
G1 X123.232 Y55.817 E39.87857
G1 X123.904 Y56.027 E39.90199
G1 X124.548 Y56.312 E39.92541
G1 X125.156 Y56.667 E39.94883
G1 X125.719 Y57.09 E39.97225
G1 X126.231 Y57.573 E39.99566
G1 X126.684 Y58.111 E40.01905
G1 X127.074 Y58.698 E40.04249
G1 X127.395 Y59.324 E40.06589
G1 X127.642 Y59.983 E40.0893
G1 X127.814 Y60.666 E40.11273
G1 X127.906 Y61.364 E40.13614
G1 X127.924 Y64.973 E40.25618
G1 X127.719 Y72.645 E40.51144
G1 X127.09 Y80.42 E40.77089
G1 X126.037 Y88.18 E41.03135
G1 X124.561 Y95.873 E41.29189
G1 X122.668 Y103.469 E41.55226
G1 X107.851 Y156.353 E43.37892
G1 X107.68 Y156.872 E43.3971
G1 X107.525 Y157.282 E43.41167
G1 X107.071 Y158.231 E43.44666
G1 X106.463 Y159.188 E43.48437
G1 X105.962 Y159.796 E43.51058
G1 X105.477 Y160.307 E43.53401
G1 X104.86 Y160.835 E43.56102
G1 X104.295 Y161.254 E43.58442
G1 X103.617 Y161.657 E43.61065
G1 X102.988 Y161.973 E43.63406
G1 X102.226 Y162.262 E43.66117
G1 X101.551 Y162.463 E43.68459
G1 X100.774 Y162.612 E43.71091
G1 X100.075 Y162.696 E43.73432
G1 X99.26 Y162.708 E43.76143
G1 X98.557 Y162.668 E43.78485
G1 X97.747 Y162.536 E43.81215
G1 X97.062 Y162.374 E43.83556
G1 X96.316 Y162.115 E43.86182
G1 X95.669 Y161.838 E43.88523
G1 X94.958 Y161.442 E43.9123
G1 X94.369 Y161.056 E43.93572
G1 X93.754 Y160.557 E43.96206
G1 X93.239 Y160.077 E43.98548
G1 X92.706 Y159.465 E44.01247
G1 X92.283 Y158.903 E44.03587
G1 X91.877 Y158.231 E44.06198
G1 X91.555 Y157.605 E44.08539
G1 X91.264 Y156.86 E44.112
G1 X91.098 Y156.353 E44.12974
G1 X76.345 Y103.718 E45.94785
G1 X74.5 Y96.373 E46.19974
G1 X72.995 Y88.674 E46.46066
G1 X71.912 Y80.901 E46.72168
G1 X71.257 Y73.08 E46.98272
G1 X71.028 Y65.214 E47.24446
G1 X71.023 Y61.859 E47.35605
G1 X71.062 Y61.156 E47.37946
G1 X71.181 Y60.462 E47.40288
G1 X71.378 Y59.786 E47.4263
G1 X71.65 Y59.137 E47.44971
G1 X71.994 Y58.522 E47.47314
G1 X72.405 Y57.951 E47.49654
G0 F2400 X72.801 Y58.1
G1 F1200 X73.272 Y57.607 E47.51922
G1 X73.796 Y57.173 E47.54185
G1 X74.368 Y56.804 E47.56449
G1 X74.98 Y56.504 E47.58716
G1 X75.622 Y56.278 E47.6098
G1 X76.286 Y56.129 E47.63243
G1 X77.22 Y56.053 E47.6636
G1 X121.667 Y56.03 E49.14191
G1 X122.51 Y56.085 E49.17001
G1 X123.178 Y56.216 E49.19265
G1 X123.826 Y56.425 E49.2153
G1 X124.445 Y56.709 E49.23795
G1 X125.027 Y57.063 E49.26061
G1 X125.563 Y57.483 E49.28325
G1 X126.046 Y57.963 E49.3059
G1 X126.469 Y58.496 E49.32854
G1 X126.827 Y59.075 E49.35118
G1 X127.115 Y59.692 E49.37382
G1 X127.329 Y60.339 E49.39649
G1 X127.465 Y61.006 E49.41913
G1 X127.524 Y61.831 E49.44664
G1 X127.524 Y64.973 E49.55114
G1 X127.319 Y72.634 E49.80604
G1 X126.692 Y80.387 E50.06475
G1 X125.64 Y88.126 E50.32452
G1 X124.168 Y95.797 E50.58431
G1 X122.28 Y103.372 E50.84396
G1 X107.466 Y156.245 E52.67025
G1 X107.306 Y156.731 E52.68726
G1 X107.151 Y157.141 E52.70184
G1 X106.727 Y158.028 E52.73454
G1 X106.509 Y158.399 E52.74885
G1 X105.936 Y159.207 E52.7818
G1 X105.656 Y159.538 E52.79622
G1 X104.938 Y160.25 E52.82985
G1 X104.604 Y160.528 E52.8443
G1 X103.79 Y161.095 E52.8773
G1 X103.417 Y161.31 E52.89162
G1 X102.496 Y161.739 E52.92541
G1 X102.09 Y161.886 E52.93977
G1 X101.131 Y162.142 E52.97279
G1 X100.704 Y162.218 E52.98721
G1 X99.688 Y162.308 E53.02114
G1 X99.26 Y162.308 E53.03537
G1 X98.244 Y162.218 E53.0693
G1 X97.817 Y162.142 E53.08372
G1 X96.858 Y161.886 E53.11673
G1 X96.452 Y161.739 E53.1311
G1 X95.531 Y161.31 E53.16489
G1 X95.158 Y161.095 E53.17921
G1 X94.344 Y160.528 E53.2122
G1 X94.01 Y160.25 E53.22666
G1 X93.292 Y159.538 E53.26029
G1 X93.012 Y159.207 E53.27471
G1 X92.439 Y158.399 E53.30765
G1 X92.221 Y158.028 E53.32197
G1 X91.792 Y157.129 E53.3551
G1 X91.483 Y156.245 E53.38624
G1 X76.73 Y103.61 E55.20436
G1 X74.888 Y96.276 E55.45586
G1 X73.388 Y88.597 E55.71609
G1 X72.309 Y80.846 E55.97638
G1 X71.656 Y73.047 E56.23668
G1 X71.428 Y65.203 E56.49769
G1 X71.423 Y61.858 E56.60894
G1 X71.462 Y61.179 E56.63156
G1 X71.581 Y60.508 E56.65423
G1 X71.778 Y59.856 E56.67688
G1 X72.049 Y59.232 E56.69951
G1 X72.392 Y58.644 E56.72215
G1 X72.801 Y58.1 E56.74479
G0 F2400 X73.197 Y58.254
G1 F1200 X73.664 Y57.792 E56.76664
G1 X74.183 Y57.39 E56.78847
G1 X74.748 Y57.054 E56.81033
G1 X75.349 Y56.789 E56.83218
G1 X75.978 Y56.598 E56.85404
G1 X76.625 Y56.486 E56.87588
G1 X77.22 Y56.453 E56.8957
G1 X121.667 Y56.43 E58.37402
G1 X122.479 Y56.484 E58.40108
G1 X123.123 Y56.615 E58.42294
G1 X123.746 Y56.824 E58.4448
G1 X124.339 Y57.106 E58.46664
G1 X124.893 Y57.459 E58.48849
G1 X125.401 Y57.876 E58.51035
G1 X125.854 Y58.352 E58.5322
G1 X126.246 Y58.879 E58.55405
G1 X126.571 Y59.45 E58.5759
G1 X126.824 Y60.056 E58.59774
G1 X127.002 Y60.688 E58.61958
G1 X127.101 Y61.338 E58.64145
G1 X127.124 Y64.973 E58.76235
G1 X126.919 Y72.623 E59.01688
G1 X126.293 Y80.354 E59.27486
G1 X125.244 Y88.072 E59.53392
G1 X123.775 Y95.721 E59.79298
G1 X121.892 Y103.274 E60.05188
G1 X107.081 Y156.137 E61.87782
G1 X106.777 Y157 E61.90825
G1 X106.382 Y157.826 E61.9387
G1 X106.164 Y158.197 E61.95301
G1 X105.631 Y158.949 E61.98367
G1 X105.351 Y159.28 E61.99809
G1 X104.683 Y159.942 E62.02937
G1 X104.349 Y160.22 E62.04382
G1 X103.591 Y160.748 E62.07455
G1 X103.218 Y160.963 E62.08887
G1 X102.359 Y161.362 E62.12037
G1 X101.953 Y161.509 E62.13473
G1 X101.061 Y161.748 E62.16545
G1 X100.634 Y161.824 E62.17987
G1 X99.688 Y161.908 E62.21146
G1 X99.26 Y161.908 E62.22569
G1 X98.314 Y161.824 E62.25728
G1 X97.887 Y161.748 E62.27171
G1 X96.995 Y161.509 E62.30242
G1 X96.589 Y161.362 E62.31678
G1 X95.73 Y160.963 E62.34828
G1 X95.357 Y160.748 E62.3626
G1 X94.599 Y160.22 E62.39333
G1 X94.265 Y159.942 E62.40778
G1 X93.597 Y159.28 E62.43906
G1 X93.317 Y158.949 E62.45348
G1 X92.784 Y158.197 E62.48414
G1 X92.566 Y157.826 E62.49845
G1 X92.167 Y156.989 E62.52929
G1 X91.868 Y156.137 E62.55932
G1 X77.115 Y103.502 E64.37744
G1 X75.276 Y96.179 E64.62856
G1 X73.78 Y88.521 E64.88808
G1 X72.705 Y80.792 E65.14763
G1 X72.054 Y73.014 E65.40723
G1 X71.828 Y65.192 E65.6675
G1 X71.823 Y61.858 E65.77839
G1 X71.862 Y61.202 E65.80024
G1 X71.981 Y60.556 E65.82209
G1 X72.177 Y59.929 E65.84394
G1 X72.448 Y59.331 E65.86578
G1 X72.79 Y58.77 E65.88763
G1 X73.197 Y58.254 E65.90949
G0 F2400 X73.592 Y58.415
G1 F1200 X74.055 Y57.985 E65.93051
G1 X74.569 Y57.616 E65.95155
G1 X75.124 Y57.315 E65.97255
G1 X75.714 Y57.086 E65.9936
G1 X76.327 Y56.934 E66.01461
G1 X77.22 Y56.853 E66.04443
G1 X121.667 Y56.83 E67.52274
G1 X122.447 Y56.883 E67.54875
G1 X123.065 Y57.014 E67.56976
G1 X123.662 Y57.222 E67.59078
